;FLAVOR:RepRap
;TIME:9651
;Filament used: 15.5854m
;Layer height: 0.2
;Generated with Cura_SteamEngine 4.0.0
T0
M82 ;absolute extrusion mode
M291 P"Tool Cartridge: X 400, Material: PLA - Genric, and Print Surface: PEI" R"This Job Uses" S3
M104 S225 T0 ; set extruder temp
M140 S50 ; set bed probing temp
M98 P/sys/Z-offset X 400.g ; Call tool offset
M291 P"Waiting to reach bed probing temperature..." R"Auto Level Compensation" S1 T0
M190 S50 ; wait for bed probing temp
M140 S55 ; set bed temp layer 0
M98 P/sys/probeauto.g ; conduct auto bed level compensation
G1 X-8 Y20 F6000 ; position over purge bucket
M190 S55 ; wait for bed temp
M109 S225 T0; wait for extruder temp
M83
M572 D0 S0.047 ; set material pressure advance value
T0
M116 ; Wait for temperatures
G1 E20 F80 ; Prime
M98 P/sys/wipe.g ; wipe
M83 ;relative extrusion mode
G1 F4200 E-2.5
;LAYER_COUNT:50
;LAYER:0
M107
M204 T3000
M566 X600 Y600
G0 F9000 X196.541 Y171.489 Z0.25
M204 P3000
;TYPE:SKIRT
G1 F4200 E2.5
G1 F1200 X196.201 Y171.526 E0.016
G1 X12.799 Y171.526 E8.57809
G1 X12.447 Y171.486 E0.01657
G1 X12.113 Y171.369 E0.01655
G1 X11.813 Y171.179 E0.01661
G1 X11.563 Y170.928 E0.01657
G1 X11.376 Y170.627 E0.01657
G1 X11.261 Y170.291 E0.01661
G1 X11.224 Y169.951 E0.016
G1 X11.226 Y146.988 E1.07403
G1 X11.262 Y146.653 E0.01576
G1 X12.559 Y140.703 E0.28483
G1 X13.023 Y137.982 E0.1291
G1 X13.73 Y132.469 E0.25997
G1 X14.125 Y126.914 E0.26047
G1 X14.215 Y122.683 E0.19794
G1 X14.175 Y78.261 E2.07771
G1 X13.861 Y72.721 E0.25953
G1 X13.231 Y67.171 E0.26125
G1 X12.292 Y61.693 E0.25995
G1 X11.706 Y58.972 E0.13018
G1 X11.267 Y57.117 E0.08916
G1 X11.225 Y56.755 E0.01705
G1 X11.224 Y36.049 E0.96846
G1 X11.264 Y35.697 E0.01657
G1 X11.381 Y35.363 E0.01655
G1 X11.571 Y35.063 E0.01661
G1 X11.822 Y34.813 E0.01657
G1 X12.123 Y34.626 E0.01657
G1 X12.459 Y34.511 E0.01661
G1 X12.799 Y34.474 E0.016
G1 X196.201 Y34.475 E8.57809
G1 X196.553 Y34.515 E0.01657
G1 X196.887 Y34.632 E0.01655
G1 X197.187 Y34.822 E0.01661
G1 X197.437 Y35.073 E0.01657
G1 X197.624 Y35.374 E0.01657
G1 X197.739 Y35.71 E0.01661
G1 X197.776 Y36.05 E0.016
G1 X197.775 Y56.755 E0.96842
G1 X197.708 Y57.209 E0.02146
G1 X196.321 Y61.82 E0.22521
G1 X194.987 Y67.259 E0.26193
G1 X194.443 Y69.966 E0.12914
G1 X193.974 Y72.715 E0.13043
G1 X193.268 Y78.229 E0.26001
G1 X192.874 Y83.782 E0.26038
G1 X192.785 Y87.996 E0.19714
G1 X192.825 Y118.834 E1.44236
G1 X193.139 Y124.374 E0.25953
G1 X193.769 Y129.924 E0.26125
G1 X194.708 Y135.402 E0.25995
G1 X195.288 Y138.097 E0.12894
G1 X195.957 Y140.824 E0.13133
G1 X197.711 Y146.801 E0.29135
G1 X197.775 Y147.245 E0.02098
G1 X197.776 Y169.951 E1.06201
G1 X197.736 Y170.303 E0.01657
G1 X197.619 Y170.637 E0.01655
G1 X197.429 Y170.937 E0.01661
G1 X197.178 Y171.187 E0.01657
G1 X196.877 Y171.374 E0.01657
G1 X196.541 Y171.489 E0.01661
G1 F4200 E-2.5
G1 F2400 Z0.85
G0 F9000 X188.59 Y150.59 Z0.85
;TYPE:SUPPORT
G1 F2400 Z0.25
G1 F4200 E2.5
G1 F1200 X22.91 Y150.59 E6.02715
G1 X22.911 Y50.911 E3.62615
G1 X79.085 Y50.91 E2.04351
G1 X79.085 Y49.96 E0.03456
G1 X120.415 Y49.961 E1.50351
G1 X120.415 Y50.91 E0.03452
G1 X188.59 Y50.91 E2.48009
G1 X188.59 Y150.59 E3.62619
G1 F4200 E-2.5
G1 F2400 Z0.85
G0 F9000 X180.375 Y146.475 Z0.85
G1 F2400 Z0.25
G1 F4200 E2.5
G1 F1200 X180.725 Y146.125 E0.01801
G1 X180.725 Y59.875 E3.13763
G1 X180.375 Y59.525 E0.01801
G1 X26.625 Y59.525 E5.59316
G1 X26.275 Y59.875 E0.01801
G1 X26.275 Y146.125 E3.13763
G1 X26.625 Y146.475 E0.01801
G1 X180.375 Y146.475 E5.59316
G0 F9000 X179.641 Y146.636
G1 F1200 X179.641 Y150.429 E0.13798
G1 F4200 E-2.5
G1 F2400 Z0.85
G0 F9000 X177.308 Y150.429 Z0.85
G1 F2400 Z0.25
G1 F4200 E2.5
G1 F1200 X177.308 Y146.636 E0.13798
G1 F4200 E-2.5
G1 F2400 Z0.85
G0 F9000 X174.975 Y146.636 Z0.85
G1 F2400 Z0.25
G1 F4200 E2.5
G1 F1200 X174.975 Y150.429 E0.13798
G1 F4200 E-2.5
G1 F2400 Z0.85
G0 F9000 X172.642 Y150.429 Z0.85
G1 F2400 Z0.25
G1 F4200 E2.5
G1 F1200 X172.642 Y146.636 E0.13798
G1 F4200 E-2.5
G1 F2400 Z0.85
G0 F9000 X170.309 Y146.636 Z0.85
G1 F2400 Z0.25
G1 F4200 E2.5
G1 F1200 X170.309 Y150.429 E0.13798
G1 F4200 E-2.5
G1 F2400 Z0.85
G0 F9000 X167.976 Y150.429 Z0.85
G1 F2400 Z0.25
G1 F4200 E2.5
G1 F1200 X167.976 Y146.636 E0.13798
G1 F4200 E-2.5
G1 F2400 Z0.85
G0 F9000 X165.643 Y146.636 Z0.85
G1 F2400 Z0.25
G1 F4200 E2.5
G1 F1200 X165.643 Y150.429 E0.13798
G1 F4200 E-2.5
G1 F2400 Z0.85
G0 F9000 X163.31 Y150.429 Z0.85
G1 F2400 Z0.25
G1 F4200 E2.5
G1 F1200 X163.31 Y146.636 E0.13798
G1 F4200 E-2.5
G1 F2400 Z0.85
G0 F9000 X160.977 Y146.636 Z0.85
G1 F2400 Z0.25
G1 F4200 E2.5
G1 F1200 X160.977 Y150.429 E0.13798
G1 F4200 E-2.5
G1 F2400 Z0.85
G0 F9000 X158.644 Y150.429 Z0.85
G1 F2400 Z0.25
G1 F4200 E2.5
G1 F1200 X158.644 Y146.636 E0.13798
G1 F4200 E-2.5
G1 F2400 Z0.85
G0 F9000 X156.311 Y146.636 Z0.85
G1 F2400 Z0.25
G1 F4200 E2.5
G1 F1200 X156.311 Y150.429 E0.13798
G1 F4200 E-2.5
G1 F2400 Z0.85
G0 F9000 X153.978 Y150.429 Z0.85
G1 F2400 Z0.25
G1 F4200 E2.5
G1 F1200 X153.978 Y146.636 E0.13798
G1 F4200 E-2.5
G1 F2400 Z0.85
G0 F9000 X151.645 Y146.636 Z0.85
G1 F2400 Z0.25
G1 F4200 E2.5
G1 F1200 X151.645 Y150.429 E0.13798
G1 F4200 E-2.5
G1 F2400 Z0.85
G0 F9000 X149.312 Y150.429 Z0.85
G1 F2400 Z0.25
G1 F4200 E2.5
G1 F1200 X149.312 Y146.636 E0.13798
G1 F4200 E-2.5
G1 F2400 Z0.85
G0 F9000 X146.979 Y146.636 Z0.85
G1 F2400 Z0.25
G1 F4200 E2.5
G1 F1200 X146.979 Y150.429 E0.13798
G1 F4200 E-2.5
G1 F2400 Z0.85
G0 F9000 X144.646 Y150.429 Z0.85
G1 F2400 Z0.25
G1 F4200 E2.5
G1 F1200 X144.646 Y146.636 E0.13798
G1 F4200 E-2.5
G1 F2400 Z0.85
G0 F9000 X142.313 Y146.636 Z0.85
G1 F2400 Z0.25
G1 F4200 E2.5
G1 F1200 X142.313 Y150.429 E0.13798
G1 F4200 E-2.5
G1 F2400 Z0.85
G0 F9000 X139.98 Y150.429 Z0.85
G1 F2400 Z0.25
G1 F4200 E2.5
G1 F1200 X139.98 Y146.636 E0.13798
G1 F4200 E-2.5
G1 F2400 Z0.85
G0 F9000 X137.647 Y146.636 Z0.85
G1 F2400 Z0.25
G1 F4200 E2.5
G1 F1200 X137.647 Y150.429 E0.13798
G1 F4200 E-2.5
G1 F2400 Z0.85
G0 F9000 X135.314 Y150.429 Z0.85
G1 F2400 Z0.25
G1 F4200 E2.5
G1 F1200 X135.314 Y146.636 E0.13798
G1 F4200 E-2.5
G1 F2400 Z0.85
G0 F9000 X132.981 Y146.636 Z0.85
G1 F2400 Z0.25
G1 F4200 E2.5
G1 F1200 X132.981 Y150.429 E0.13798
G1 F4200 E-2.5
G1 F2400 Z0.85
G0 F9000 X130.648 Y150.429 Z0.85
G1 F2400 Z0.25
G1 F4200 E2.5
G1 F1200 X130.648 Y146.636 E0.13798
G1 F4200 E-2.5
G1 F2400 Z0.85
G0 F9000 X128.315 Y146.636 Z0.85
G1 F2400 Z0.25
G1 F4200 E2.5
G1 F1200 X128.315 Y150.429 E0.13798
G1 F4200 E-2.5
G1 F2400 Z0.85
G0 F9000 X125.982 Y150.429 Z0.85
G1 F2400 Z0.25
G1 F4200 E2.5
G1 F1200 X125.982 Y146.636 E0.13798
G1 F4200 E-2.5
G1 F2400 Z0.85
G0 F9000 X123.649 Y146.636 Z0.85
G1 F2400 Z0.25
G1 F4200 E2.5
G1 F1200 X123.649 Y150.429 E0.13798
G1 F4200 E-2.5
G1 F2400 Z0.85
G0 F9000 X121.316 Y150.429 Z0.85
G1 F2400 Z0.25
G1 F4200 E2.5
G1 F1200 X121.316 Y146.636 E0.13798
G1 F4200 E-2.5
G1 F2400 Z0.85
G0 F9000 X118.983 Y146.636 Z0.85
G1 F2400 Z0.25
G1 F4200 E2.5
G1 F1200 X118.983 Y150.429 E0.13798
G1 F4200 E-2.5
G1 F2400 Z0.85
G0 F9000 X116.65 Y150.429 Z0.85
G1 F2400 Z0.25
G1 F4200 E2.5
G1 F1200 X116.65 Y146.636 E0.13798
G1 F4200 E-2.5
G1 F2400 Z0.85
G0 F9000 X114.317 Y146.636 Z0.85
G1 F2400 Z0.25
G1 F4200 E2.5
G1 F1200 X114.317 Y150.429 E0.13798
G1 F4200 E-2.5
G1 F2400 Z0.85
G0 F9000 X111.984 Y150.429 Z0.85
G1 F2400 Z0.25
G1 F4200 E2.5
G1 F1200 X111.984 Y146.636 E0.13798
G1 F4200 E-2.5
G1 F2400 Z0.85
G0 F9000 X109.651 Y146.636 Z0.85
G1 F2400 Z0.25
G1 F4200 E2.5
G1 F1200 X109.651 Y150.429 E0.13798
G1 F4200 E-2.5
G1 F2400 Z0.85
G0 F9000 X107.318 Y150.429 Z0.85
G1 F2400 Z0.25
G1 F4200 E2.5
G1 F1200 X107.318 Y146.636 E0.13798
G1 F4200 E-2.5
G1 F2400 Z0.85
G0 F9000 X104.985 Y146.636 Z0.85
G1 F2400 Z0.25
G1 F4200 E2.5
G1 F1200 X104.985 Y150.429 E0.13798
G1 F4200 E-2.5
G1 F2400 Z0.85
G0 F9000 X102.652 Y150.429 Z0.85
G1 F2400 Z0.25
G1 F4200 E2.5
G1 F1200 X102.652 Y146.636 E0.13798
G1 F4200 E-2.5
G1 F2400 Z0.85
G0 F9000 X100.319 Y146.636 Z0.85
G1 F2400 Z0.25
G1 F4200 E2.5
G1 F1200 X100.319 Y150.429 E0.13798
G1 F4200 E-2.5
G1 F2400 Z0.85
G0 F9000 X97.986 Y150.429 Z0.85
G1 F2400 Z0.25
G1 F4200 E2.5
G1 F1200 X97.986 Y146.636 E0.13798
G1 F4200 E-2.5
G1 F2400 Z0.85
G0 F9000 X95.653 Y146.636 Z0.85
G1 F2400 Z0.25
G1 F4200 E2.5
G1 F1200 X95.653 Y150.429 E0.13798
G1 F4200 E-2.5
G1 F2400 Z0.85
G0 F9000 X93.32 Y150.429 Z0.85
G1 F2400 Z0.25
G1 F4200 E2.5
G1 F1200 X93.32 Y146.636 E0.13798
G1 F4200 E-2.5
G1 F2400 Z0.85
G0 F9000 X90.987 Y146.636 Z0.85
G1 F2400 Z0.25
G1 F4200 E2.5
G1 F1200 X90.987 Y150.429 E0.13798
G1 F4200 E-2.5
G1 F2400 Z0.85
G0 F9000 X88.654 Y150.429 Z0.85
G1 F2400 Z0.25
G1 F4200 E2.5
G1 F1200 X88.654 Y146.636 E0.13798
G1 F4200 E-2.5
G1 F2400 Z0.85
G0 F9000 X86.321 Y146.636 Z0.85
G1 F2400 Z0.25
G1 F4200 E2.5
G1 F1200 X86.321 Y150.429 E0.13798
G1 F4200 E-2.5
G1 F2400 Z0.85
G0 F9000 X83.988 Y150.429 Z0.85
G1 F2400 Z0.25
G1 F4200 E2.5
G1 F1200 X83.988 Y146.636 E0.13798
G1 F4200 E-2.5
G1 F2400 Z0.85
G0 F9000 X81.655 Y146.636 Z0.85
G1 F2400 Z0.25
G1 F4200 E2.5
G1 F1200 X81.655 Y150.429 E0.13798
G1 F4200 E-2.5
G1 F2400 Z0.85
G0 F9000 X79.322 Y150.429 Z0.85
G1 F2400 Z0.25
G1 F4200 E2.5
G1 F1200 X79.322 Y146.636 E0.13798
G1 F4200 E-2.5
G1 F2400 Z0.85
G0 F9000 X76.989 Y146.636 Z0.85
G1 F2400 Z0.25
G1 F4200 E2.5
G1 F1200 X76.989 Y150.429 E0.13798
G1 F4200 E-2.5
G1 F2400 Z0.85
G0 F9000 X74.656 Y150.429 Z0.85
G1 F2400 Z0.25
G1 F4200 E2.5
G1 F1200 X74.656 Y146.636 E0.13798
G1 F4200 E-2.5
G1 F2400 Z0.85
G0 F9000 X72.323 Y146.636 Z0.85
G1 F2400 Z0.25
G1 F4200 E2.5
G1 F1200 X72.323 Y150.429 E0.13798
G1 F4200 E-2.5
G1 F2400 Z0.85
G0 F9000 X69.99 Y150.429 Z0.85
G1 F2400 Z0.25
G1 F4200 E2.5
G1 F1200 X69.99 Y146.636 E0.13798
G1 F4200 E-2.5
G1 F2400 Z0.85
G0 F9000 X67.657 Y146.636 Z0.85
G1 F2400 Z0.25
G1 F4200 E2.5
G1 F1200 X67.657 Y150.429 E0.13798
G1 F4200 E-2.5
G1 F2400 Z0.85
G0 F9000 X65.324 Y150.429 Z0.85
G1 F2400 Z0.25
G1 F4200 E2.5
G1 F1200 X65.324 Y146.636 E0.13798
G1 F4200 E-2.5
G1 F2400 Z0.85
G0 F9000 X62.991 Y146.636 Z0.85
G1 F2400 Z0.25
G1 F4200 E2.5
G1 F1200 X62.991 Y150.429 E0.13798
G1 F4200 E-2.5
G1 F2400 Z0.85
G0 F9000 X60.658 Y150.429 Z0.85
G1 F2400 Z0.25
G1 F4200 E2.5
G1 F1200 X60.658 Y146.636 E0.13798
G1 F4200 E-2.5
G1 F2400 Z0.85
G0 F9000 X58.325 Y146.636 Z0.85
G1 F2400 Z0.25
G1 F4200 E2.5
G1 F1200 X58.325 Y150.429 E0.13798
G1 F4200 E-2.5
G1 F2400 Z0.85
G0 F9000 X55.992 Y150.429 Z0.85
G1 F2400 Z0.25
G1 F4200 E2.5
G1 F1200 X55.992 Y146.636 E0.13798
G1 F4200 E-2.5
G1 F2400 Z0.85
G0 F9000 X53.659 Y146.636 Z0.85
G1 F2400 Z0.25
G1 F4200 E2.5
G1 F1200 X53.659 Y150.429 E0.13798
G1 F4200 E-2.5
G1 F2400 Z0.85
G0 F9000 X51.326 Y150.429 Z0.85
G1 F2400 Z0.25
G1 F4200 E2.5
G1 F1200 X51.326 Y146.636 E0.13798
G1 F4200 E-2.5
G1 F2400 Z0.85
G0 F9000 X48.993 Y146.636 Z0.85
G1 F2400 Z0.25
G1 F4200 E2.5
G1 F1200 X48.993 Y150.429 E0.13798
G1 F4200 E-2.5
G1 F2400 Z0.85
G0 F9000 X46.66 Y150.429 Z0.85
G1 F2400 Z0.25
G1 F4200 E2.5
G1 F1200 X46.66 Y146.636 E0.13798
G1 F4200 E-2.5
G1 F2400 Z0.85
G0 F9000 X44.327 Y146.636 Z0.85
G1 F2400 Z0.25
G1 F4200 E2.5
G1 F1200 X44.327 Y150.429 E0.13798
G1 F4200 E-2.5
G1 F2400 Z0.85
G0 F9000 X41.994 Y150.429 Z0.85
G1 F2400 Z0.25
G1 F4200 E2.5
G1 F1200 X41.994 Y146.636 E0.13798
G1 F4200 E-2.5
G1 F2400 Z0.85
G0 F9000 X39.661 Y146.636 Z0.85
G1 F2400 Z0.25
G1 F4200 E2.5
G1 F1200 X39.661 Y150.429 E0.13798
G1 F4200 E-2.5
G1 F2400 Z0.85
G0 F9000 X37.328 Y150.429 Z0.85
G1 F2400 Z0.25
G1 F4200 E2.5
G1 F1200 X37.328 Y146.636 E0.13798
G1 F4200 E-2.5
G1 F2400 Z0.85
G0 F9000 X34.995 Y146.636 Z0.85
G1 F2400 Z0.25
G1 F4200 E2.5
G1 F1200 X34.995 Y150.429 E0.13798
G1 F4200 E-2.5
G1 F2400 Z0.85
G0 F9000 X32.662 Y150.429 Z0.85
G1 F2400 Z0.25
G1 F4200 E2.5
G1 F1200 X32.662 Y146.636 E0.13798
G1 F4200 E-2.5
G1 F2400 Z0.85
G0 F9000 X30.329 Y146.636 Z0.85
G1 F2400 Z0.25
G1 F4200 E2.5
G1 F1200 X30.329 Y150.429 E0.13798
G1 F4200 E-2.5
G1 F2400 Z0.85
G0 F9000 X27.996 Y150.429 Z0.85
G1 F2400 Z0.25
G1 F4200 E2.5
G1 F1200 X27.996 Y146.636 E0.13798
G1 F4200 E-2.5
G1 F2400 Z0.85
G0 F9000 X26.113 Y144.646 Z0.85
G1 F2400 Z0.25
G1 F4200 E2.5
G1 F1200 X23.071 Y144.646 E0.11066
G1 F4200 E-2.5
G1 F2400 Z0.85
G0 F9000 X23.071 Y142.313 Z0.85
G1 F2400 Z0.25
G1 F4200 E2.5
G1 F1200 X26.113 Y142.313 E0.11066
G1 F4200 E-2.5
G1 F2400 Z0.85
G0 F9000 X26.113 Y139.98 Z0.85
G1 F2400 Z0.25
G1 F4200 E2.5
G1 F1200 X23.071 Y139.98 E0.11066
G1 F4200 E-2.5
G1 F2400 Z0.85
G0 F9000 X23.071 Y137.647 Z0.85
G1 F2400 Z0.25
G1 F4200 E2.5
G1 F1200 X26.113 Y137.647 E0.11066
G1 F4200 E-2.5
G1 F2400 Z0.85
G0 F9000 X26.113 Y135.314 Z0.85
G1 F2400 Z0.25
G1 F4200 E2.5
G1 F1200 X23.071 Y135.314 E0.11066
G1 F4200 E-2.5
G1 F2400 Z0.85
G0 F9000 X23.071 Y132.981 Z0.85
G1 F2400 Z0.25
G1 F4200 E2.5
G1 F1200 X26.113 Y132.981 E0.11066
G1 F4200 E-2.5
G1 F2400 Z0.85
G0 F9000 X26.113 Y130.648 Z0.85
G1 F2400 Z0.25
G1 F4200 E2.5
G1 F1200 X23.071 Y130.648 E0.11066
G1 F4200 E-2.5
G1 F2400 Z0.85
G0 F9000 X23.071 Y128.315 Z0.85
G1 F2400 Z0.25
G1 F4200 E2.5
G1 F1200 X26.113 Y128.315 E0.11066
G1 F4200 E-2.5
G1 F2400 Z0.85
G0 F9000 X26.113 Y125.982 Z0.85
G1 F2400 Z0.25
G1 F4200 E2.5
G1 F1200 X23.071 Y125.982 E0.11066
G1 F4200 E-2.5
G1 F2400 Z0.85
G0 F9000 X23.071 Y123.649 Z0.85
G1 F2400 Z0.25
G1 F4200 E2.5
G1 F1200 X26.113 Y123.649 E0.11066
G1 F4200 E-2.5
G1 F2400 Z0.85
G0 F9000 X26.113 Y121.316 Z0.85
G1 F2400 Z0.25
G1 F4200 E2.5
G1 F1200 X23.071 Y121.316 E0.11066
G1 F4200 E-2.5
G1 F2400 Z0.85
G0 F9000 X23.071 Y118.983 Z0.85
G1 F2400 Z0.25
G1 F4200 E2.5
G1 F1200 X26.113 Y118.983 E0.11066
G1 F4200 E-2.5
G1 F2400 Z0.85
G0 F9000 X26.113 Y116.65 Z0.85
G1 F2400 Z0.25
G1 F4200 E2.5
G1 F1200 X23.071 Y116.65 E0.11066
G1 F4200 E-2.5
G1 F2400 Z0.85
G0 F9000 X23.071 Y114.317 Z0.85
G1 F2400 Z0.25
G1 F4200 E2.5
G1 F1200 X26.113 Y114.317 E0.11066
G1 F4200 E-2.5
G1 F2400 Z0.85
G0 F9000 X26.113 Y111.984 Z0.85
G1 F2400 Z0.25
G1 F4200 E2.5
G1 F1200 X23.071 Y111.984 E0.11066
G1 F4200 E-2.5
G1 F2400 Z0.85
G0 F9000 X23.071 Y109.651 Z0.85
G1 F2400 Z0.25
G1 F4200 E2.5
G1 F1200 X26.113 Y109.651 E0.11066
G1 F4200 E-2.5
G1 F2400 Z0.85
G0 F9000 X26.113 Y107.318 Z0.85
G1 F2400 Z0.25
G1 F4200 E2.5
G1 F1200 X23.071 Y107.318 E0.11066
G1 F4200 E-2.5
G1 F2400 Z0.85
G0 F9000 X23.071 Y104.985 Z0.85
G1 F2400 Z0.25
G1 F4200 E2.5
G1 F1200 X26.113 Y104.985 E0.11066
G1 F4200 E-2.5
G1 F2400 Z0.85
G0 F9000 X26.113 Y102.652 Z0.85
G1 F2400 Z0.25
G1 F4200 E2.5
G1 F1200 X23.071 Y102.652 E0.11066
G1 F4200 E-2.5
G1 F2400 Z0.85
G0 F9000 X23.071 Y100.319 Z0.85
G1 F2400 Z0.25
G1 F4200 E2.5
G1 F1200 X26.113 Y100.319 E0.11066
G1 F4200 E-2.5
G1 F2400 Z0.85
G0 F9000 X26.113 Y97.986 Z0.85
G1 F2400 Z0.25
G1 F4200 E2.5
G1 F1200 X23.071 Y97.986 E0.11066
G1 F4200 E-2.5
G1 F2400 Z0.85
G0 F9000 X23.071 Y95.653 Z0.85
G1 F2400 Z0.25
G1 F4200 E2.5
G1 F1200 X26.113 Y95.653 E0.11066
G1 F4200 E-2.5
G1 F2400 Z0.85
G0 F9000 X26.113 Y93.32 Z0.85
G1 F2400 Z0.25
G1 F4200 E2.5
G1 F1200 X23.071 Y93.32 E0.11066
G1 F4200 E-2.5
G1 F2400 Z0.85
G0 F9000 X23.071 Y90.987 Z0.85
G1 F2400 Z0.25
G1 F4200 E2.5
G1 F1200 X26.113 Y90.987 E0.11066
G1 F4200 E-2.5
G1 F2400 Z0.85
G0 F9000 X26.113 Y88.654 Z0.85
G1 F2400 Z0.25
G1 F4200 E2.5
G1 F1200 X23.071 Y88.654 E0.11066
G1 F4200 E-2.5
G1 F2400 Z0.85
G0 F9000 X23.071 Y86.321 Z0.85
G1 F2400 Z0.25
G1 F4200 E2.5
G1 F1200 X26.113 Y86.321 E0.11066
G1 F4200 E-2.5
G1 F2400 Z0.85
G0 F9000 X26.113 Y83.988 Z0.85
G1 F2400 Z0.25
G1 F4200 E2.5
G1 F1200 X23.071 Y83.988 E0.11066
G1 F4200 E-2.5
G1 F2400 Z0.85
G0 F9000 X23.071 Y81.655 Z0.85
G1 F2400 Z0.25
G1 F4200 E2.5
G1 F1200 X26.113 Y81.655 E0.11066
G1 F4200 E-2.5
G1 F2400 Z0.85
