;FLAVOR:RepRap
;TIME:2170
;Filament used: 3.48706m
;Layer height: 0.3
;Generated with Cura_SteamEngine 4.0.0
T0
M82 ;absolute extrusion mode
M291 P"Tool Cartridge: X 400, Material: PETG - Generic, and Print Surface: PEI" R"This Job Uses" S3
M104 S245 T0 ; set extruder temp
M140 S70 ; set bed probing temp
M98 P/sys/Z-offset X 400.g ; Call tool offset
M291 P"Waiting to reach bed probing temperature..." R"Auto Level Compensation" S1 T0
M190 S70 ; wait for bed probing temp
M98 P/sys/probeauto.g ; conduct auto bed level compensation
G1 X-8 Y20 F6000 ; position over purge bucket
M140 S75 ; set bed temp layer 0
M190 S75 ; wait for bed temp
M109 S245 T0; wait for extruder temp
M83
M572 D0 S0.073 ; set material pressure advance value
T0
M116 ; Wait for temperatures
G1 E20 F80 ; Prime
M98 P/sys/wipe.g ; wipe
M83 ;relative extrusion mode
G1 F4200 E-2.5
;LAYER_COUNT:24
;LAYER:0
M107
M204 T3000
M566 X600 Y600
;MESH:Duet Mount.stl
G0 F9000 X52.863 Y43.864 Z0.25
M204 P3000
;TYPE:WALL-INNER
G1 F4200 E2.5
G1 F1200 X53.052 Y43.676 E0.01247
G1 X53.34 Y43.495 E0.01591
G1 X53.493 Y43.399 E0.00845
G1 X53.897 Y43.259 E0.02
G1 X53.989 Y43.227 E0.00456
G1 X54.494 Y43.171 E0.02376
G1 X54.541 Y43.165 E0.00222
G1 X55.088 Y43.165 E0.02558
G1 X55.636 Y43.165 E0.02563
G1 X55.755 Y43.165 E0.00557
G1 X145.245 Y43.165 E4.18563
G1 X145.364 Y43.165 E0.00557
G1 X145.912 Y43.165 E0.02563
G1 X146.453 Y43.165 E0.0253
G1 X146.506 Y43.171 E0.00249
G1 X147.079 Y43.244 E0.02702
G1 X147.107 Y43.255 E0.00141
G1 X147.619 Y43.457 E0.02574
G1 X147.665 Y43.491 E0.00268
G1 X148.097 Y43.806 E0.02501
G1 X148.143 Y43.862 E0.00339
G1 X148.469 Y44.256 E0.02392
G1 X148.51 Y44.344 E0.00454
G1 X148.738 Y44.833 E0.02524
G1 X148.756 Y44.891 E0.00284
G1 X148.934 Y45.448 E0.02735
G1 X149.097 Y45.957 E0.025
G1 X149.107 Y45.99 E0.00161
G1 X156.343 Y68.594 E1.11009
G1 X156.407 Y68.796 E0.00991
G1 X156.578 Y69.329 E0.02618
G1 X156.722 Y69.779 E0.0221
G1 X156.752 Y69.896 E0.00565
G1 X156.78 Y69.999 E0.00499
G1 X156.82 Y70.249 E0.01184
G1 X156.834 Y70.497 E0.01162
G1 X156.835 Y70.511 E0.00066
G1 X156.835 Y71.088 E0.02699
G1 X156.835 Y71.636 E0.02563
G1 X156.835 Y71.755 E0.00557
G1 X156.835 Y134.245 E2.92279
G1 X156.835 Y134.364 E0.00557
G1 X156.835 Y134.912 E0.02563
G1 X156.835 Y135.482 E0.02666
G1 X156.834 Y135.503 E0.00098
G1 X156.821 Y135.744 E0.01129
G1 X156.78 Y136.002 E0.01222
G1 X156.754 Y136.103 E0.00488
G1 X156.725 Y136.211 E0.00523
G1 X156.578 Y136.671 E0.02259
G1 X156.408 Y137.202 E0.02608
G1 X156.344 Y137.404 E0.00991
G1 X149.109 Y160.013 E1.11029
G1 X149.1 Y160.042 E0.00142
G1 X148.936 Y160.552 E0.02506
G1 X148.758 Y161.109 E0.02735
G1 X148.738 Y161.17 E0.003
G1 X148.511 Y161.657 E0.02513
G1 X148.477 Y161.73 E0.00377
G1 X148.145 Y162.138 E0.0246
G1 X148.105 Y162.187 E0.00296
G1 X147.668 Y162.509 E0.02539
G1 X147.634 Y162.534 E0.00197
G1 X147.107 Y162.744 E0.02653
G1 X147.079 Y162.756 E0.00142
G1 X146.506 Y162.828 E0.02701
G1 X146.453 Y162.835 E0.0025
G1 X145.912 Y162.835 E0.0253
G1 X145.364 Y162.835 E0.02563
G1 X145.245 Y162.835 E0.00557
G1 X55.755 Y162.835 E4.18563
G1 X55.636 Y162.835 E0.00557
G1 X55.088 Y162.835 E0.02563
G1 X54.54 Y162.835 E0.02563
G1 X54.495 Y162.83 E0.00212
G1 X53.99 Y162.774 E0.02376
G1 X53.896 Y162.742 E0.00464
G1 X53.493 Y162.602 E0.01995
G1 X53.34 Y162.506 E0.00845
G1 X53.053 Y162.326 E0.01585
G1 X52.864 Y162.138 E0.01247
G1 X52.68 Y161.955 E0.01214
G1 X52.495 Y161.66 E0.01629
G1 X52.403 Y161.515 E0.00803
G1 X52.259 Y161.105 E0.02032
G1 X52.229 Y161.02 E0.00422
G1 X52.171 Y160.506 E0.02419
G1 X52.165 Y160.457 E0.00231
G1 X52.165 Y159.912 E0.02549
G1 X52.165 Y159.364 E0.02563
G1 X52.165 Y159.245 E0.00557
G1 X52.165 Y136.753 E1.052
G1 X52.165 Y136.647 E0.00496
G1 X52.165 Y136.101 E0.02554
G1 X52.165 Y135.515 E0.02741
G1 X52.165 Y134.927 E0.0275
G1 X52.165 Y134.377 E0.02572
G1 X52.165 Y134.247 E0.00608
G1 X52.165 Y71.755 E2.92288
G1 X52.165 Y71.636 E0.00557
G1 X52.165 Y71.088 E0.02563
G1 X52.165 Y70.5 E0.0275
G1 X52.165 Y69.912 E0.0275
G1 X52.165 Y69.364 E0.02563
G1 X52.165 Y69.245 E0.00557
G1 X52.165 Y46.755 E1.0519
G1 X52.165 Y46.636 E0.00557
G1 X52.165 Y46.088 E0.02563
G1 X52.165 Y45.541 E0.02558
G1 X52.17 Y45.495 E0.00216
G1 X52.226 Y44.985 E0.024
G1 X52.257 Y44.896 E0.00441
G1 X52.403 Y44.486 E0.02036
G1 X52.494 Y44.341 E0.00801
G1 X52.679 Y44.047 E0.01625
G1 X52.863 Y43.864 E0.01214
G0 F9000 X53.196 Y44.196
;TYPE:WALL-OUTER
G1 F1200 X52.904 Y44.578 E0.01999
G1 X52.72 Y45.023 E0.02002
G1 X52.657 Y45.5 E0.02
G1 X52.72 Y45.977 E0.02
G1 X52.904 Y46.422 E0.02002
G1 X53.196 Y46.804 E0.01999
G1 X53.578 Y47.096 E0.01999
G1 X54.023 Y47.28 E0.02002
G1 X54.5 Y47.343 E0.02
G1 X54.977 Y47.28 E0.02
G1 X55.422 Y47.096 E0.02002
G1 X55.804 Y46.804 E0.01999
G1 X56.096 Y46.422 E0.01999
G1 X56.28 Y45.977 E0.02002
G1 X56.343 Y45.5 E0.02
G1 X56.28 Y45.023 E0.02
G1 X56.096 Y44.578 E0.02002
G1 X55.804 Y44.196 E0.01999
G1 X55.422 Y43.904 E0.01999
G1 X54.977 Y43.72 E0.02002
G1 X54.5 Y43.657 E0.02
G1 X54.023 Y43.72 E0.02
G1 X53.578 Y43.904 E0.02002
G1 X53.196 Y44.196 E0.01999
G0 F9000 X53.075 Y44.355
G0 X52.725 Y44.088
G1 F4200 E-2.5
G1 F2400 Z0.85
G0 F9000 X57.64 Y48.64 Z0.85
;TYPE:WALL-INNER
G1 F2400 Z0.25
G1 F4200 E2.5
G1 F1200 X57.2 Y49.214 E0.03383
G1 X56.923 Y49.882 E0.03382
G1 X56.835 Y50.55 E0.03151
G1 X56.835 Y65.45 E0.6969
G1 X56.923 Y66.118 E0.03151
G1 X57.2 Y66.786 E0.03382
G1 X57.64 Y67.36 E0.03383
G1 X58.214 Y67.8 E0.03383
G1 X58.882 Y68.077 E0.03382
G1 X59.55 Y68.165 E0.03151
G1 X147.558 Y68.165 E4.11632
G1 X148.158 Y68.094 E0.02826
G1 X148.768 Y67.871 E0.03038
G1 X149.309 Y67.509 E0.03045
G1 X149.752 Y67.033 E0.03041
G1 X150.07 Y66.468 E0.03032
G1 X150.248 Y65.843 E0.03039
G1 X150.277 Y65.193 E0.03043
G1 X150.16 Y64.599 E0.02832
G1 X145.397 Y49.711 E0.73111
G1 X145.122 Y49.124 E0.03032
G1 X144.679 Y48.584 E0.03267
G1 X144.116 Y48.174 E0.03258
G1 X143.468 Y47.916 E0.03262
G1 X142.826 Y47.835 E0.03027
G1 X59.55 Y47.835 E3.89499
G1 X58.882 Y47.923 E0.03151
G1 X58.214 Y48.2 E0.03382
G1 X57.64 Y48.64 E0.03383
G0 F9000 X57.943 Y48.943
;TYPE:WALL-OUTER
G1 F1200 X57.571 Y49.428 E0.02541
G1 X57.337 Y49.993 E0.02542
G1 X57.26 Y50.578 E0.02453
G1 X57.26 Y65.422 E0.61714
G1 X57.337 Y66.007 E0.02453
G1 X57.571 Y66.572 E0.02542
G1 X57.943 Y67.057 E0.02541
G1 X58.428 Y67.429 E0.02541
G1 X58.993 Y67.663 E0.02542
G1 X59.578 Y67.74 E0.02453
G1 X147.533 Y67.74 E3.65674
G1 X148.059 Y67.678 E0.02202
G1 X148.574 Y67.489 E0.02281
G1 X149.032 Y67.183 E0.0229
G1 X149.406 Y66.781 E0.02283
G1 X149.675 Y66.303 E0.0228
G1 X149.826 Y65.774 E0.02287
G1 X149.85 Y65.225 E0.02285
G1 X149.748 Y64.705 E0.02203
G1 X145 Y49.866 E0.64775
G1 X144.76 Y49.352 E0.02358
G1 X144.385 Y48.896 E0.02455
G1 X143.909 Y48.549 E0.02449
G1 X143.361 Y48.331 E0.02452
G1 X142.799 Y48.26 E0.02355
G1 X59.578 Y48.26 E3.45993
G1 X58.993 Y48.337 E0.02453
G1 X58.428 Y48.571 E0.02542
G1 X57.943 Y48.943 E0.02541
G0 F9000 X57.822 Y49.101
G0 X57.473 Y48.833
G1 F4200 E-2.5
G1 F2400 Z0.85
G0 F9000 X52.893 Y68.893 Z0.85
;TYPE:WALL-INNER
G1 F2400 Z0.25
G1 F4200 E2.5
G1 F1200 X52.605 Y69.27 E0.02219
G1 X52.533 Y69.364 E0.00506
G1 X52.306 Y69.912 E0.0164
G1 X52.228 Y70.5 E0.00645
G1 X52.306 Y71.088 E0.00645
G1 X52.533 Y71.636 E0.0164
G1 X52.605 Y71.73 E0.00506
G1 X52.893 Y72.107 E0.02219
G1 X53.364 Y72.467 E0.02773
G1 X53.912 Y72.694 E0.02774
G1 X54.5 Y72.772 E0.02774
G1 X55.088 Y72.694 E0.02774
G1 X55.636 Y72.467 E0.02774
G1 X56.107 Y72.107 E0.02773
G1 X56.467 Y71.636 E0.02773
G1 X56.694 Y71.088 E0.02774
G1 X56.772 Y70.5 E0.02774
G1 X56.694 Y69.912 E0.02774
G1 X56.467 Y69.364 E0.02774
G1 X56.107 Y68.893 E0.02773
G1 X55.636 Y68.533 E0.02773
G1 X55.088 Y68.306 E0.02774
G1 X54.5 Y68.228 E0.02774
G1 X53.912 Y68.306 E0.02774
G1 X53.364 Y68.533 E0.02774
G1 X52.893 Y68.893 E0.02773
G0 F9000 X53.196 Y69.196
;TYPE:WALL-OUTER
G1 F1200 X52.904 Y69.578 E0.01999
G1 X52.72 Y70.023 E0.02002
G1 X52.657 Y70.5 E0.02
G1 X52.72 Y70.977 E0.02
G1 X52.904 Y71.422 E0.02002
G1 X53.196 Y71.804 E0.01999
G1 X53.578 Y72.096 E0.01999
G1 X54.023 Y72.28 E0.02002
G1 X54.5 Y72.343 E0.02
G1 X54.977 Y72.28 E0.02
G1 X55.422 Y72.096 E0.02002
G1 X55.804 Y71.804 E0.01999
G1 X56.096 Y71.422 E0.01999
G1 X56.28 Y70.977 E0.02002
G1 X56.343 Y70.5 E0.02
G1 X56.28 Y70.023 E0.02
G1 X56.096 Y69.578 E0.02002
G1 X55.804 Y69.196 E0.01999
G1 X55.422 Y68.904 E0.01999
G1 X54.977 Y68.72 E0.02002
G1 X54.5 Y68.657 E0.02
G1 X54.023 Y68.72 E0.02
G1 X53.578 Y68.904 E0.02002
G1 X53.196 Y69.196 E0.01999
G0 F9000 X53.075 Y69.355
G0 X52.725 Y69.088
G1 F4200 E-2.5
G1 F2400 Z0.85
G0 F9000 X57.64 Y73.64 Z0.85
;TYPE:WALL-INNER
G1 F2400 Z0.25
G1 F4200 E2.5
G1 F1200 X57.2 Y74.214 E0.03383
G1 X56.923 Y74.882 E0.03382
G1 X56.835 Y75.55 E0.03151
G1 X56.835 Y130.45 E2.56779
G1 X56.923 Y131.118 E0.03151
G1 X57.2 Y131.786 E0.03382
G1 X57.64 Y132.36 E0.03383
G1 X58.214 Y132.8 E0.03383
G1 X58.882 Y133.077 E0.03382
G1 X59.55 Y133.165 E0.03151
G1 X149.45 Y133.165 E4.20481
G1 X150.118 Y133.077 E0.03151
G1 X150.786 Y132.8 E0.03382
G1 X151.36 Y132.36 E0.03383
G1 X151.8 Y131.786 E0.03383
G1 X152.077 Y131.118 E0.03382
G1 X152.165 Y130.45 E0.03151
G1 X152.165 Y75.55 E2.56779
G1 X152.077 Y74.882 E0.03151
G1 X151.8 Y74.214 E0.03382
G1 X151.36 Y73.64 E0.03383
G1 X150.786 Y73.2 E0.03383
G1 X150.118 Y72.923 E0.03382
G1 X149.45 Y72.835 E0.03151
G1 X59.55 Y72.835 E4.20481
G1 X58.882 Y72.923 E0.03151
G1 X58.214 Y73.2 E0.03382
G1 X57.64 Y73.64 E0.03383
G0 F9000 X57.943 Y73.943
;TYPE:WALL-OUTER
G1 F1200 X57.571 Y74.428 E0.02541
G1 X57.337 Y74.993 E0.02542
G1 X57.26 Y75.578 E0.02453
G1 X57.26 Y130.422 E2.28015
G1 X57.337 Y131.007 E0.02453
G1 X57.571 Y131.572 E0.02542
G1 X57.943 Y132.057 E0.02541
G1 X58.428 Y132.429 E0.02541
G1 X58.993 Y132.663 E0.02542
G1 X59.578 Y132.74 E0.02453
G1 X149.422 Y132.74 E3.73528
G1 X150.007 Y132.663 E0.02453
G1 X150.572 Y132.429 E0.02542
G1 X151.057 Y132.057 E0.02541
G1 X151.429 Y131.572 E0.02541
G1 X151.663 Y131.007 E0.02542
G1 X151.74 Y130.422 E0.02453
G1 X151.74 Y75.578 E2.28015
G1 X151.663 Y74.993 E0.02453
G1 X151.429 Y74.428 E0.02542
G1 X151.057 Y73.943 E0.02541
G1 X150.572 Y73.571 E0.02541
G1 X150.007 Y73.337 E0.02542
G1 X149.422 Y73.26 E0.02453
G1 X59.578 Y73.26 E3.73528
G1 X58.993 Y73.337 E0.02453
G1 X58.428 Y73.571 E0.02542
G1 X57.943 Y73.943 E0.02541
G0 F9000 X57.822 Y74.101
G0 X57.473 Y73.833
G1 F4200 E-2.5
G1 F2400 Z0.85
G0 F9000 X52.893 Y158.893 Z0.85
;TYPE:WALL-INNER
G1 F2400 Z0.25
G1 F4200 E2.5
G1 F1200 X52.605 Y159.27 E0.02219
G1 X52.533 Y159.364 E0.00506
G1 X52.306 Y159.912 E0.0164
G1 X52.233 Y160.465 E0.00632
G1 X52.228 Y160.5
G1 X52.295 Y161.01 E0.00323
G1 X52.306 Y161.088 E0.00022
G1 X52.47 Y161.486 E0.00265
G1 X52.533 Y161.636 E0.00081
G1 X52.741 Y161.908 E0.00206
G1 X52.893 Y162.107 E0.00139
G1 X53.099 Y162.265 E0.00145
G1 X53.364 Y162.467 E0.002
G1 X53.521 Y162.532 E0.00084
G1 X53.912 Y162.694 E0.0027
G1 X53.998 Y162.705
G1 X54.5 Y162.772 E0.00331
G1 X54.53 Y162.768
G1 X55.088 Y162.694 E0.00639
G1 X55.636 Y162.467 E0.0164
G1 X55.73 Y162.395 E0.00506
G1 X56.107 Y162.107 E0.02219
G1 X56.467 Y161.636 E0.02773
G1 X56.694 Y161.088 E0.02774
G1 X56.772 Y160.5 E0.02774
G1 X56.694 Y159.912 E0.02774
G1 X56.467 Y159.364 E0.02774
G1 X56.107 Y158.893 E0.02773
G1 X55.636 Y158.533 E0.02773
G1 X55.088 Y158.306 E0.02774
G1 X54.5 Y158.228 E0.02774
G1 X53.912 Y158.306 E0.02774
G1 X53.364 Y158.533 E0.02774
G1 X52.893 Y158.893 E0.02773
G0 F9000 X53.196 Y159.196
;TYPE:WALL-OUTER
G1 F1200 X52.904 Y159.578 E0.01999
G1 X52.72 Y160.023 E0.02002
G1 X52.657 Y160.5 E0.02
G1 X52.72 Y160.977 E0.02
G1 X52.904 Y161.422 E0.02002
G1 X53.196 Y161.804 E0.01999
G1 X53.578 Y162.096 E0.01999
G1 X54.023 Y162.28 E0.02002
G1 X54.5 Y162.343 E0.02
G1 X54.977 Y162.28 E0.02
G1 X55.422 Y162.096 E0.02002
G1 X55.804 Y161.804 E0.01999
G1 X56.096 Y161.422 E0.01999
G1 X56.28 Y160.977 E0.02002
G1 X56.343 Y160.5 E0.02
G1 X56.28 Y160.023 E0.02
G1 X56.096 Y159.578 E0.02002
G1 X55.804 Y159.196 E0.01999
G1 X55.422 Y158.904 E0.01999
G1 X54.977 Y158.72 E0.02002
G1 X54.5 Y158.657 E0.02
G1 X54.023 Y158.72 E0.02
G1 X53.578 Y158.904 E0.02002
G1 X53.196 Y159.196 E0.01999
G0 F9000 X53.075 Y159.355
G0 X52.725 Y159.088
G1 F4200 E-2.5
G1 F2400 Z0.85
G0 F9000 X52.229 Y135.515 Z0.85
;TYPE:WALL-INNER
G1 F2400 Z0.25
G1 F4200 E2.5
G1 F1200 X52.312 Y136.101 E0.00665
G1 X52.541 Y136.647 E0.0168
G1 X52.606 Y136.73 E0.00455
G1 X52.905 Y137.115 E0.0228
G1 X53.377 Y137.474 E0.02774
G1 X53.927 Y137.697 E0.02776
G1 X54.515 Y137.771 E0.02772
G1 X55.101 Y137.688 E0.02768
G1 X55.647 Y137.459 E0.02769
G1 X56.115 Y137.095 E0.02773
G1 X56.474 Y136.623 E0.02774
G1 X56.697 Y136.073 E0.02776
G1 X56.771 Y135.485 E0.02772
G1 X56.688 Y134.899 E0.02768
G1 X56.459 Y134.353 E0.02769
G1 X56.095 Y133.885 E0.02773
G1 X55.623 Y133.526 E0.02774
G1 X55.073 Y133.303 E0.02776
G1 X54.485 Y133.229 E0.02772
G1 X53.899 Y133.312 E0.02768
G1 X53.353 Y133.541 E0.02769
G1 X52.885 Y133.905 E0.02773
G1 X52.604 Y134.274 E0.02169
G1 X52.526 Y134.377 E0.00548
G1 X52.303 Y134.927 E0.01609
G1 X52.229 Y135.515 E0.00634
G0 F9000 X52.658 Y135.512
;TYPE:WALL-OUTER
G1 F1200 X52.725 Y135.987 E0.01994
G1 X52.911 Y136.431 E0.02001
G1 X53.206 Y136.81 E0.01997
G1 X53.589 Y137.101 E0.02
G1 X54.035 Y137.282 E0.02001
G1 X54.512 Y137.342 E0.01999
G1 X54.987 Y137.275 E0.01994
G1 X55.431 Y137.089 E0.02001
G1 X55.81 Y136.794 E0.01997
G1 X56.101 Y136.411 E0.02
G1 X56.282 Y135.965 E0.02001
G1 X56.342 Y135.488 E0.01999
G1 X56.275 Y135.013 E0.01994
G1 X56.089 Y134.569 E0.02001
G1 X55.794 Y134.19 E0.01997
G1 X55.411 Y133.899 E0.02
G1 X54.965 Y133.718 E0.02001
G1 X54.488 Y133.658 E0.01999
G1 X54.013 Y133.725 E0.01994
G1 X53.569 Y133.911 E0.02001
G1 X53.19 Y134.206 E0.01997
G1 X52.899 Y134.589 E0.02
G1 X52.718 Y135.035 E0.02001
G1 X52.658 Y135.512 E0.01999
G0 F9000 X52.685 Y135.71
G0 X52.249 Y135.771
G1 F4200 E-2.5
G1 F2400 Z0.85
G0 F9000 X57.64 Y138.64 Z0.85
;TYPE:WALL-INNER
G1 F2400 Z0.25
G1 F4200 E2.5
G1 F1200 X57.2 Y139.214 E0.03383
G1 X56.923 Y139.882 E0.03382
G1 X56.835 Y140.55 E0.03151
G1 X56.835 Y155.45 E0.6969
G1 X56.923 Y156.118 E0.03151
G1 X57.2 Y156.786 E0.03382
G1 X57.64 Y157.36 E0.03383
G1 X58.214 Y157.8 E0.03383
G1 X58.882 Y158.077 E0.03382
G1 X59.55 Y158.165 E0.03151
G1 X142.826 Y158.165 E3.89499
G1 X143.468 Y158.084 E0.03027
G1 X144.116 Y157.826 E0.03262
G1 X144.679 Y157.416 E0.03258
G1 X145.122 Y156.876 E0.03267
G1 X145.397 Y156.289 E0.03032
G1 X150.16 Y141.401 E0.73111
G1 X150.277 Y140.807 E0.02832
G1 X150.248 Y140.157 E0.03043
G1 X150.07 Y139.532 E0.03039
G1 X149.752 Y138.967 E0.03032
G1 X149.309 Y138.491 E0.03041
G1 X148.768 Y138.129 E0.03045
G1 X148.158 Y137.906 E0.03038
G1 X147.558 Y137.835 E0.02826
G1 X59.55 Y137.835 E4.11632
G1 X58.882 Y137.923 E0.03151
G1 X58.214 Y138.2 E0.03382
G1 X57.64 Y138.64 E0.03383
G0 F9000 X57.943 Y138.943
;TYPE:WALL-OUTER
G1 F1200 X57.571 Y139.428 E0.02541
G1 X57.337 Y139.993 E0.02542
G1 X57.26 Y140.578 E0.02453
G1 X57.26 Y155.422 E0.61714
G1 X57.337 Y156.007 E0.02453
G1 X57.571 Y156.572 E0.02542
G1 X57.943 Y157.057 E0.02541
G1 X58.428 Y157.429 E0.02541
G1 X58.993 Y157.663 E0.02542
G1 X59.578 Y157.74 E0.02453
G1 X142.799 Y157.74 E3.45993
G1 X143.361 Y157.669 E0.02355
G1 X143.909 Y157.451 E0.02452
G1 X144.385 Y157.104 E0.02449
G1 X144.76 Y156.648 E0.02455
G1 X145 Y156.134 E0.02358
G1 X149.748 Y141.295 E0.64775
G1 X149.85 Y140.775 E0.02203
G1 X149.826 Y140.226 E0.02285
G1 X149.675 Y139.697 E0.02287
G1 X149.406 Y139.219 E0.0228
G1 X149.032 Y138.817 E0.02283
G1 X148.574 Y138.511 E0.0229
G1 X148.059 Y138.322 E0.02281
G1 X147.533 Y138.26 E0.02202
G1 X59.578 Y138.26 E3.65674
