;FLAVOR:RepRap
;TIME:19703
;Filament used: 41.3721m
;Layer height: 0.2
;Generated with Cura_SteamEngine 4.0.0
T0
M82 ;absolute extrusion mode
M291 P"Tool Cartridge: X 400, Material: PETG - Generic, and Print Surface: PEI" R"This Job Uses" S3
M104 S240 T0 ; set extruder temp
M140 S70 ; set bed probing temp
M98 P/sys/Z-offset X 400.g ; Call tool offset
M291 P"Waiting to reach bed probing temperature..." R"Auto Level Compensation" S1 T0
M190 S70 ; wait for bed probing temp
M98 P/sys/probeauto.g ; conduct auto bed level compensation
G1 X-8 Y20 F6000 ; position over purge bucket
M140 S75 ; set bed temp layer 0
M190 S75 ; wait for bed temp
M109 S240 T0; wait for extruder temp
M83
M572 D0 S0.09 ; set material pressure advance value
T0
M116 ; Wait for temperatures
G1 E20 F80 ; Prime
M98 P/sys/wipe.g ; wipe
M83 ;relative extrusion mode
G1 F4200 E-2.5
;LAYER_COUNT:30
;LAYER:0
M107
M204 T3000
M566 X600 Y600
G0 F9000 X198.242 Y196.397 Z0.25
M204 P3000
;TYPE:SKIRT
G1 F4200 E2.5
G1 F1200 X197.547 Y196.98 E0.04243
G1 X196.452 Y197.746 E0.0625
G1 X195.679 Y198.193 E0.04176
G1 X194.461 Y198.763 E0.0629
G1 X193.6 Y199.077 E0.04287
G1 X192.309 Y199.421 E0.06249
G1 X191.428 Y199.575 E0.04183
G1 X190.091 Y199.692 E0.06277
G1 X189.64 Y199.712 E0.02111
G1 X18.144 Y199.712 E8.02122
G1 X17.693 Y199.692 E0.02111
G1 X16.356 Y199.575 E0.06277
G1 X15.476 Y199.421 E0.04178
G1 X14.184 Y199.077 E0.06253
G1 X13.32 Y198.762 E0.04301
G1 X12.103 Y198.192 E0.06286
G1 X11.329 Y197.745 E0.04181
G1 X10.234 Y196.978 E0.06253
G1 X9.55 Y196.404 E0.04176
G1 X8.6 Y195.457 E0.06274
G1 X8.009 Y194.754 E0.04296
G1 X7.244 Y193.658 E0.06251
G1 X6.801 Y192.889 E0.04151
G1 X6.231 Y191.671 E0.0629
G1 X5.917 Y190.81 E0.04287
G1 X5.573 Y189.519 E0.06249
G1 X5.419 Y188.639 E0.04178
G1 X5.302 Y187.305 E0.06263
G1 X5.282 Y186.853 E0.02116
G1 X5.282 Y115.353 E3.3442
G1 X5.302 Y114.902 E0.02111
G1 X5.419 Y113.566 E0.06273
G1 X5.574 Y112.684 E0.04189
G1 X5.918 Y111.394 E0.06244
G1 X6.23 Y110.535 E0.04275
G1 X6.8 Y109.316 E0.06294
G1 X7.249 Y108.54 E0.04193
G1 X8.015 Y107.446 E0.06246
G1 X8.591 Y106.759 E0.04193
G1 X9.539 Y105.809 E0.06277
G1 X10.24 Y105.22 E0.04282
G1 X11.336 Y104.455 E0.06251
G1 X11.942 Y104.106 E0.03271
G1 X11.938 Y104.104 E0.00021
G1 X10.844 Y103.338 E0.06246
G1 X10.157 Y102.762 E0.04193
G1 X9.207 Y101.814 E0.06277
G1 X8.618 Y101.113 E0.04282
G1 X7.853 Y100.017 E0.06251
G1 X7.411 Y99.252 E0.04132
G1 X6.84 Y98.034 E0.06292
G1 X6.525 Y97.168 E0.0431
G1 X6.181 Y95.876 E0.06253
G1 X6.027 Y94.997 E0.04174
G1 X5.91 Y93.664 E0.06259
G1 X5.89 Y93.212 E0.02116
G1 X5.89 Y21.712 E3.3442
G1 X5.91 Y21.261 E0.02111
G1 X6.027 Y19.925 E0.06273
G1 X6.182 Y19.043 E0.04189
G1 X6.526 Y17.753 E0.06244
G1 X6.84 Y16.891 E0.04291
G1 X7.411 Y15.672 E0.06296
G1 X7.858 Y14.899 E0.04176
G1 X8.624 Y13.805 E0.06246
G1 X9.2 Y13.118 E0.04193
G1 X10.148 Y12.168 E0.06277
G1 X10.847 Y11.581 E0.04269
G1 X11.942 Y10.816 E0.06248
G1 X12.711 Y10.372 E0.04153
G1 X13.928 Y9.802 E0.06286
G1 X14.788 Y9.488 E0.04282
G1 X16.08 Y9.143 E0.06255
G1 X16.964 Y8.988 E0.04198
G1 X18.301 Y8.871 E0.06277
G1 X18.752 Y8.851 E0.02111
G1 X190.248 Y8.851 E8.02122
G1 X190.699 Y8.871 E0.02111
G1 X192.036 Y8.988 E0.06277
G1 X192.92 Y9.143 E0.04198
G1 X194.212 Y9.488 E0.06255
G1 X195.072 Y9.802 E0.04282
G1 X196.289 Y10.372 E0.06286
G1 X197.062 Y10.819 E0.04176
G1 X198.156 Y11.585 E0.06246
G1 X198.843 Y12.161 E0.04193
G1 X199.793 Y13.109 E0.06277
G1 X200.38 Y13.808 E0.04269
G1 X201.145 Y14.903 E0.06248
G1 X201.589 Y15.671 E0.04149
G1 X202.159 Y16.887 E0.06281
G1 X202.473 Y17.749 E0.04291
G1 X202.818 Y19.042 E0.06259
G1 X202.973 Y19.924 E0.04189
G1 X203.09 Y21.258 E0.06263
G1 X203.11 Y21.71 E0.02116
G1 X203.11 Y93.21 E3.3442
G1 X203.09 Y93.662 E0.02116
G1 X202.973 Y94.997 E0.06268
G1 X202.819 Y95.876 E0.04174
G1 X202.475 Y97.168 E0.06253
G1 X202.16 Y98.034 E0.0431
G1 X201.589 Y99.252 E0.06292
G1 X201.143 Y100.021 E0.04158
G1 X200.377 Y101.116 E0.0625
G1 X199.8 Y101.805 E0.04203
G1 X198.852 Y102.755 E0.06277
G1 X198.153 Y103.342 E0.04269
G1 X197.058 Y104.107 E0.06248
G1 X196.45 Y104.458 E0.03284
G1 X196.454 Y104.46 E0.00021
G1 X197.548 Y105.226 E0.06246
G1 X198.235 Y105.802 E0.04193
G1 X199.185 Y106.75 E0.06277
G1 X199.772 Y107.449 E0.04269
G1 X200.537 Y108.544 E0.06248
G1 X200.982 Y109.315 E0.04164
G1 X201.551 Y110.531 E0.06279
G1 X201.863 Y111.386 E0.04257
G1 X202.209 Y112.679 E0.0626
G1 X202.365 Y113.565 E0.04208
G1 X202.482 Y114.899 E0.06263
G1 X202.502 Y115.351 E0.02116
G1 X202.502 Y186.851 E3.3442
G1 X202.482 Y187.302 E0.02111
G1 X202.365 Y188.638 E0.06273
G1 X202.21 Y189.523 E0.04202
G1 X201.865 Y190.814 E0.0625
G1 X201.552 Y191.671 E0.04267
G1 X200.982 Y192.889 E0.0629
G1 X200.535 Y193.662 E0.04176
G1 X199.769 Y194.757 E0.0625
G1 X199.19 Y195.448 E0.04217
G1 X198.242 Y196.397 E0.06274
G0 F9000 X197.924 Y196.079
G1 F1200 X197.289 Y196.612 E0.03878
G1 X196.194 Y197.378 E0.0625
G1 X195.489 Y197.786 E0.0381
G1 X194.271 Y198.356 E0.0629
G1 X193.485 Y198.642 E0.03912
G1 X192.194 Y198.986 E0.06249
G1 X191.389 Y199.127 E0.03822
G1 X190.052 Y199.244 E0.06277
G1 X189.64 Y199.262 E0.01929
G1 X18.144 Y199.262 E8.02122
G1 X17.732 Y199.244 E0.01929
G1 X16.395 Y199.127 E0.06277
G1 X15.591 Y198.986 E0.03818
G1 X14.299 Y198.642 E0.06253
G1 X13.511 Y198.355 E0.03922
G1 X12.294 Y197.785 E0.06286
G1 X11.587 Y197.376 E0.0382
G1 X10.492 Y196.609 E0.06253
G1 X9.867 Y196.085 E0.03815
G1 X8.917 Y195.138 E0.06274
G1 X8.378 Y194.496 E0.03921
G1 X7.613 Y193.4 E0.06251
G1 X7.208 Y192.699 E0.03787
G1 X6.638 Y191.481 E0.0629
G1 X6.352 Y190.695 E0.03912
G1 X6.008 Y189.404 E0.06249
G1 X5.867 Y188.6 E0.03818
G1 X5.75 Y187.266 E0.06263
G1 X5.732 Y186.853 E0.01934
G1 X5.732 Y115.353 E3.3442
G1 X5.75 Y114.941 E0.01929
G1 X5.867 Y113.605 E0.06273
G1 X6.009 Y112.8 E0.03823
G1 X6.353 Y111.51 E0.06244
G1 X6.638 Y110.726 E0.03902
G1 X7.208 Y109.507 E0.06294
G1 X7.617 Y108.798 E0.03828
G1 X8.383 Y107.704 E0.06246
G1 X8.909 Y107.076 E0.03831
G1 X9.857 Y106.126 E0.06277
G1 X10.498 Y105.589 E0.03911
G1 X11.594 Y104.824 E0.06251
G1 X12.294 Y104.42 E0.0378
G1 X12.894 Y104.139 E0.03099
G1 X12.196 Y103.736 E0.0377
G1 X11.102 Y102.97 E0.06246
G1 X10.474 Y102.444 E0.03831
G1 X9.524 Y101.496 E0.06277
G1 X8.987 Y100.855 E0.03911
G1 X8.222 Y99.759 E0.06251
G1 X7.819 Y99.061 E0.0377
G1 X7.248 Y97.843 E0.06292
G1 X6.96 Y97.053 E0.03933
G1 X6.616 Y95.761 E0.06253
G1 X6.475 Y94.958 E0.03813
G1 X6.358 Y93.625 E0.06259
G1 X6.34 Y93.212 E0.01934
G1 X6.34 Y21.712 E3.3442
G1 X6.358 Y21.3 E0.01929
G1 X6.475 Y19.964 E0.06273
G1 X6.617 Y19.159 E0.03823
G1 X6.961 Y17.869 E0.06244
G1 X7.247 Y17.082 E0.03916
G1 X7.818 Y15.863 E0.06296
G1 X8.226 Y15.157 E0.03814
G1 X8.992 Y14.063 E0.06246
G1 X9.518 Y13.435 E0.03831
G1 X10.466 Y12.485 E0.06277
G1 X11.105 Y11.95 E0.03898
G1 X12.2 Y11.185 E0.06248
G1 X12.902 Y10.779 E0.03793
G1 X14.119 Y10.209 E0.06286
G1 X14.904 Y9.923 E0.03908
G1 X16.196 Y9.578 E0.06255
G1 X17.003 Y9.436 E0.03832
G1 X18.34 Y9.319 E0.06277
G1 X18.752 Y9.301 E0.01929
G1 X190.248 Y9.301 E8.02122
G1 X190.66 Y9.319 E0.01929
G1 X191.997 Y9.436 E0.06277
G1 X192.804 Y9.578 E0.03832
G1 X194.096 Y9.923 E0.06255
G1 X194.881 Y10.209 E0.03908
G1 X196.098 Y10.779 E0.06286
G1 X196.804 Y11.187 E0.03814
G1 X197.898 Y11.953 E0.06246
G1 X198.526 Y12.479 E0.03831
G1 X199.476 Y13.427 E0.06277
G1 X200.011 Y14.066 E0.03898
G1 X200.776 Y15.161 E0.06248
G1 X201.181 Y15.862 E0.03787
G1 X201.751 Y17.078 E0.06281
G1 X202.038 Y17.865 E0.03918
G1 X202.383 Y19.158 E0.06259
G1 X202.525 Y19.963 E0.03823
G1 X202.642 Y21.297 E0.06263
G1 X202.66 Y21.71 E0.01934
G1 X202.66 Y93.21 E3.3442
G1 X202.642 Y93.623 E0.01934
G1 X202.525 Y94.958 E0.06268
G1 X202.384 Y95.761 E0.03813
G1 X202.04 Y97.053 E0.06253
G1 X201.752 Y97.843 E0.03933
G1 X201.181 Y99.061 E0.06292
G1 X200.775 Y99.763 E0.03793
G1 X200.009 Y100.858 E0.0625
G1 X199.482 Y101.488 E0.03842
G1 X198.534 Y102.438 E0.06277
G1 X197.895 Y102.973 E0.03898
G1 X196.8 Y103.738 E0.06248
G1 X196.098 Y104.144 E0.03793
G1 X195.499 Y104.425 E0.03095
G1 X196.196 Y104.828 E0.03766
G1 X197.29 Y105.594 E0.06246
G1 X197.918 Y106.12 E0.03831
G1 X198.868 Y107.068 E0.06277
G1 X199.403 Y107.707 E0.03898
G1 X200.168 Y108.802 E0.06248
G1 X200.575 Y109.505 E0.03799
G1 X201.144 Y110.721 E0.06279
G1 X201.428 Y111.503 E0.03891
G1 X201.774 Y112.796 E0.0626
G1 X201.917 Y113.604 E0.03838
G1 X202.034 Y114.938 E0.06263
G1 X202.052 Y115.351 E0.01934
G1 X202.052 Y186.851 E3.3442
G1 X202.034 Y187.263 E0.01929
G1 X201.917 Y188.599 E0.06273
G1 X201.775 Y189.407 E0.03837
G1 X201.43 Y190.698 E0.0625
G1 X201.145 Y191.481 E0.03897
G1 X200.575 Y192.699 E0.0629
G1 X200.167 Y193.404 E0.0381
G1 X199.401 Y194.499 E0.0625
G1 X198.872 Y195.13 E0.03851
G1 X197.924 Y196.079 E0.06274
G0 F9000 X197.605 Y195.761
G1 F1200 X197.031 Y196.243 E0.03506
G1 X195.936 Y197.009 E0.0625
G1 X195.298 Y197.378 E0.03447
G1 X194.08 Y197.948 E0.0629
G1 X193.369 Y198.207 E0.03539
G1 X192.078 Y198.551 E0.06249
G1 X191.35 Y198.679 E0.03457
G1 X190.013 Y198.796 E0.06277
G1 X189.64 Y198.812 E0.01746
G1 X18.144 Y198.812 E8.02122
G1 X17.771 Y198.796 E0.01746
G1 X16.434 Y198.679 E0.06277
G1 X15.707 Y198.551 E0.03453
G1 X14.415 Y198.207 E0.06253
G1 X13.702 Y197.947 E0.0355
G1 X12.485 Y197.377 E0.06286
G1 X11.845 Y197.007 E0.03458
G1 X10.75 Y196.24 E0.06253
G1 X10.185 Y195.767 E0.03446
G1 X9.235 Y194.82 E0.06274
G1 X8.747 Y194.239 E0.03549
G1 X7.982 Y193.143 E0.06251
G1 X7.616 Y192.508 E0.03428
G1 X7.046 Y191.29 E0.0629
G1 X6.787 Y190.579 E0.03539
G1 X6.443 Y189.288 E0.06249
G1 X6.315 Y188.561 E0.03453
G1 X6.198 Y187.227 E0.06263
G1 X6.182 Y186.853 E0.01751
G1 X6.182 Y115.353 E3.3442
G1 X6.198 Y114.98 E0.01746
G1 X6.315 Y113.644 E0.06273
G1 X6.443 Y112.915 E0.03462
G1 X6.787 Y111.625 E0.06244
G1 X7.045 Y110.916 E0.03529
G1 X7.615 Y109.697 E0.06294
G1 X7.986 Y109.056 E0.03464
G1 X8.752 Y107.962 E0.06246
G1 X9.228 Y107.394 E0.03466
G1 X10.176 Y106.444 E0.06277
G1 X10.755 Y105.958 E0.03536
G1 X11.851 Y105.193 E0.06251
G1 X12.485 Y104.828 E0.03422
G1 X13.702 Y104.258 E0.06286
G1 X13.986 Y104.154 E0.01415
G1 X13.093 Y103.736 E0.04612
G1 X12.454 Y103.367 E0.03451
G1 X11.36 Y102.601 E0.06246
G1 X10.792 Y102.125 E0.03466
G1 X9.842 Y101.177 E0.06277
G1 X9.356 Y100.598 E0.03536
G1 X8.591 Y99.502 E0.06251
G1 X8.226 Y98.87 E0.03414
G1 X7.655 Y97.652 E0.06292
G1 X7.395 Y96.937 E0.03558
G1 X7.051 Y95.645 E0.06253
G1 X6.923 Y94.919 E0.03448
G1 X6.806 Y93.586 E0.06259
G1 X6.79 Y93.212 E0.01751
G1 X6.79 Y21.712 E3.3442
G1 X6.806 Y21.339 E0.01746
G1 X6.923 Y20.003 E0.06273
G1 X7.051 Y19.274 E0.03462
G1 X7.395 Y17.984 E0.06244
G1 X7.655 Y17.273 E0.03541
G1 X8.226 Y16.054 E0.06296
G1 X8.595 Y15.415 E0.03451
G1 X9.361 Y14.321 E0.06246
G1 X9.837 Y13.753 E0.03466
G1 X10.785 Y12.803 E0.06277
G1 X11.363 Y12.319 E0.03526
G1 X12.458 Y11.554 E0.06248
G1 X13.093 Y11.187 E0.0343
G1 X14.31 Y10.617 E0.06286
G1 X15.02 Y10.358 E0.03535
G1 X16.312 Y10.013 E0.06255
G1 X17.042 Y9.884 E0.03467
G1 X18.379 Y9.767 E0.06277
G1 X18.752 Y9.751 E0.01746
G1 X190.248 Y9.751 E8.02122
G1 X190.621 Y9.767 E0.01746
G1 X191.958 Y9.884 E0.06277
G1 X192.688 Y10.013 E0.03467
G1 X193.98 Y10.358 E0.06255
G1 X194.69 Y10.617 E0.03535
G1 X195.907 Y11.187 E0.06286
G1 X196.546 Y11.556 E0.03451
G1 X197.64 Y12.322 E0.06246
G1 X198.208 Y12.798 E0.03466
G1 X199.158 Y13.746 E0.06277
G1 X199.642 Y14.324 E0.03526
G1 X200.407 Y15.419 E0.06248
G1 X200.774 Y16.053 E0.03426
G1 X201.344 Y17.269 E0.06281
G1 X201.603 Y17.981 E0.03544
G1 X201.948 Y19.274 E0.06259
G1 X202.077 Y20.002 E0.03458
G1 X202.194 Y21.336 E0.06263
G1 X202.21 Y21.71 E0.01751
G1 X202.21 Y93.21 E3.3442
G1 X202.194 Y93.583 E0.01746
G1 X202.077 Y94.918 E0.06268
G1 X201.949 Y95.645 E0.03453
G1 X201.605 Y96.937 E0.06253
G1 X201.345 Y97.652 E0.03558
G1 X200.774 Y98.87 E0.06292
G1 X200.406 Y99.505 E0.03433
G1 X199.64 Y100.6 E0.0625
G1 X199.163 Y101.17 E0.03476
G1 X198.215 Y102.12 E0.06277
G1 X197.637 Y102.604 E0.03526
G1 X196.542 Y103.369 E0.06248
G1 X195.907 Y103.736 E0.0343
G1 X194.69 Y104.306 E0.06286
G1 X194.406 Y104.41 E0.01415
G1 X195.298 Y104.827 E0.04605
G1 X195.938 Y105.197 E0.03458
G1 X197.032 Y105.963 E0.06246
G1 X197.6 Y106.439 E0.03466
G1 X198.55 Y107.387 E0.06277
G1 X199.034 Y107.965 E0.03526
G1 X199.799 Y109.06 E0.06248
G1 X200.167 Y109.696 E0.03437
G1 X200.736 Y110.912 E0.06279
G1 X200.994 Y111.619 E0.0352
G1 X201.34 Y112.912 E0.0626
G1 X201.469 Y113.643 E0.03472
G1 X201.586 Y114.977 E0.06263
G1 X201.602 Y115.351 E0.01751
G1 X201.602 Y186.851 E3.3442
G1 X201.586 Y187.224 E0.01746
G1 X201.469 Y188.56 E0.06273
G1 X201.34 Y189.291 E0.03472
G1 X200.995 Y190.582 E0.0625
G1 X200.737 Y191.29 E0.03524
G1 X200.167 Y192.508 E0.0629
G1 X199.798 Y193.146 E0.03447
G1 X199.032 Y194.241 E0.0625
G1 X198.553 Y194.812 E0.03486
G1 X197.605 Y195.761 E0.06274
G0 F9000 X197.287 Y195.443
G1 F1200 X196.774 Y195.874 E0.03134
G1 X195.679 Y196.64 E0.0625
G1 X195.107 Y196.97 E0.03089
G1 X193.889 Y197.54 E0.0629
G1 X193.253 Y197.772 E0.03166
G1 X191.962 Y198.116 E0.06249
G1 X191.31 Y198.23 E0.03096
G1 X189.973 Y198.347 E0.06277
G1 X189.64 Y198.362 E0.01559
G1 X18.144 Y198.362 E8.02122
G1 X17.811 Y198.347 E0.01559
G1 X16.474 Y198.23 E0.06277
G1 X15.823 Y198.116 E0.03091
G1 X14.531 Y197.772 E0.06253
G1 X13.893 Y197.54 E0.03175
G1 X12.676 Y196.97 E0.06286
G1 X12.104 Y196.639 E0.03091
G1 X11.009 Y195.872 E0.06253
G1 X10.503 Y195.448 E0.03088
G1 X9.553 Y194.501 E0.06274
G1 X9.116 Y193.981 E0.03177
G1 X8.351 Y192.885 E0.06251
G1 X8.024 Y192.317 E0.03065
G1 X7.454 Y191.099 E0.0629
G1 X7.222 Y190.463 E0.03166
G1 X6.878 Y189.172 E0.06249
G1 X6.764 Y188.521 E0.03091
G1 X6.647 Y187.187 E0.06263
G1 X6.632 Y186.853 E0.01564
G1 X6.632 Y115.353 E3.3442
G1 X6.647 Y115.019 E0.01564
G1 X6.764 Y113.683 E0.06273
G1 X6.878 Y113.031 E0.03096
G1 X7.222 Y111.741 E0.06244
G1 X7.453 Y111.107 E0.03156
G1 X8.023 Y109.888 E0.06294
G1 X8.355 Y109.314 E0.03101
G1 X9.121 Y108.22 E0.06246
G1 X9.546 Y107.712 E0.03098
G1 X10.494 Y106.762 E0.06277
G1 X11.013 Y106.327 E0.03167
G1 X12.109 Y105.562 E0.06251
G1 X12.676 Y105.235 E0.03061
G1 X13.893 Y104.665 E0.06286
G1 X14.528 Y104.433 E0.03162
G1 X15.399 Y104.2 E0.04217
G1 X15.139 Y104.131 E0.01258
G1 X14.501 Y103.899 E0.03175
G1 X13.284 Y103.329 E0.06286
G1 X12.712 Y102.998 E0.03091
G1 X11.618 Y102.232 E0.06246
G1 X11.11 Y101.807 E0.03098
G1 X10.16 Y100.859 E0.06277
G1 X9.725 Y100.34 E0.03167
G1 X8.96 Y99.244 E0.06251
G1 X8.634 Y98.679 E0.03051
G1 X8.063 Y97.461 E0.06292
G1 X7.83 Y96.821 E0.03186
G1 X7.486 Y95.529 E0.06253
G1 X7.372 Y94.879 E0.03087
G1 X7.255 Y93.546 E0.06259
G1 X7.24 Y93.212 E0.01564
G1 X7.24 Y21.712 E3.3442
G1 X7.255 Y21.378 E0.01564
G1 X7.372 Y20.042 E0.06273
G1 X7.486 Y19.39 E0.03096
G1 X7.83 Y18.1 E0.06244
G1 X8.062 Y17.463 E0.03171
G1 X8.633 Y16.244 E0.06296
G1 X8.964 Y15.673 E0.03087
G1 X9.73 Y14.579 E0.06246
G1 X10.155 Y14.071 E0.03098
G1 X11.103 Y13.121 E0.06277
G1 X11.62 Y12.687 E0.03157
G1 X12.715 Y11.922 E0.06248
G1 X13.284 Y11.594 E0.03072
G1 X14.501 Y11.024 E0.06286
G1 X15.136 Y10.792 E0.03162
G1 X16.428 Y10.447 E0.06255
G1 X17.082 Y10.333 E0.03105
G1 X18.419 Y10.216 E0.06277
G1 X18.752 Y10.201 E0.01559
G1 X190.248 Y10.201 E8.02122
G1 X190.581 Y10.216 E0.01559
G1 X191.918 Y10.333 E0.06277
G1 X192.572 Y10.447 E0.03105
G1 X193.864 Y10.792 E0.06255
G1 X194.499 Y11.024 E0.03162
G1 X195.716 Y11.594 E0.06286
G1 X196.288 Y11.925 E0.03091
G1 X197.382 Y12.691 E0.06246
G1 X197.89 Y13.116 E0.03098
G1 X198.84 Y14.064 E0.06277
G1 X199.274 Y14.581 E0.03157
G1 X200.039 Y15.676 E0.06248
G1 X200.366 Y16.244 E0.03065
G1 X200.936 Y17.46 E0.06281
