;FLAVOR:RepRap
;TIME:1460
;Filament used: 0.4828m
;Layer height: 0.3
;MINX:1.808
;MINY:2.214
;MINZ:0.25
;MAXX:206.183
;MAXY:203.919
;MAXZ:16.5
;Generated with Cura_SteamEngine 4.1.0
T0
M82 ;absolute extrusion mode
M291 P"Tool Cartridge: X 400, Material: PETG - Generic, and Print Surface: PEI" R"This Job Uses" S3
M104 S230 T0 ; set extruder temp
M140 S70 ; set bed probing temp
M98 P/sys/Z-offset X 400.g ; Call tool offset
M291 P"Waiting to reach bed probing temperature..." R"Auto Level Compensation" S1 T0
M190 S70 ; wait for bed probing temp
M140 S75 ; set bed temp layer 0
M98 P/sys/probeauto.g ; conduct auto bed level compensation
G1 X-8 Y20 F6000 ; position over purge bucket
M190 S75 ; wait for bed temp
M109 S230 T0; wait for extruder temp
M83
M572 D0 S0.073 ; set material pressure advance value
T0
M116 ; Wait for temperatures
G1 E20 F80 ; Prime
M98 P/sys/wipe.g ; wipe
M83 ;relative extrusion mode
G1 F4200 E-2.5
;LAYER_COUNT:38
;LAYER:0
M107
M204 T1500
M566 X600 Y600
G0 F9000 X15.879 Y197.22 Z0.25
M204 P1500
;TYPE:SKIRT
G1 F4200 E2.5
G1 F1200 X15.834 Y197.741 E0.02174
G1 X15.74 Y198.366 E0.02628
G1 X15.559 Y199 E0.02741
G1 X15.377 Y199.507 E0.0224
G1 X15.126 Y200.088 E0.02631
G1 X14.791 Y200.651 E0.02724
G1 X14.496 Y201.08 E0.02165
G1 X14.106 Y201.577 E0.02627
G1 X13.649 Y202.027 E0.02666
G1 X13.246 Y202.376 E0.02216
G1 X12.743 Y202.758 E0.02626
G1 X12.145 Y203.1 E0.02864
G1 X11.666 Y203.331 E0.02211
G1 X11.08 Y203.569 E0.0263
G1 X10.456 Y203.733 E0.02682
G1 X9.936 Y203.835 E0.02203
G1 X9.31 Y203.918 E0.02625
G1 X8.655 Y203.919 E0.02723
G1 X8.124 Y203.885 E0.02212
G1 X7.496 Y203.805 E0.02632
G1 X6.85 Y203.635 E0.02777
G1 X6.35 Y203.467 E0.02193
G1 X5.765 Y203.228 E0.02627
G1 X5.198 Y202.906 E0.02711
G1 X4.752 Y202.613 E0.02219
G1 X4.246 Y202.233 E0.02631
G1 X3.777 Y201.775 E0.02725
G1 X3.425 Y201.383 E0.0219
G1 X3.033 Y200.887 E0.02628
G1 X2.692 Y200.316 E0.02765
G1 X2.451 Y199.844 E0.02203
G1 X2.2 Y199.264 E0.02627
G1 X2.02 Y198.643 E0.02688
G1 X1.906 Y198.124 E0.02209
G1 X1.81 Y197.499 E0.02629
G1 X1.808 Y196.623 E0.03642
G1 X1.868 Y195.924 E0.02917
G1 X1.962 Y195.299 E0.02628
G1 X2.221 Y194.461 E0.03647
G1 X2.424 Y193.964 E0.02232
G1 X2.7 Y193.395 E0.02629
G1 X3.061 Y192.844 E0.02739
G1 X3.377 Y192.425 E0.02182
G1 X3.789 Y191.946 E0.02627
G1 X4.274 Y191.509 E0.02714
G1 X4.694 Y191.178 E0.02223
G1 X5.214 Y190.819 E0.02627
G1 X5.793 Y190.521 E0.02707
G1 X6.273 Y190.312 E0.02177
G1 X6.867 Y190.096 E0.02628
G1 X7.52 Y189.952 E0.0278
G1 X8.048 Y189.872 E0.0222
G1 X8.678 Y189.817 E0.02629
G1 X9.337 Y189.845 E0.02742
G1 X9.862 Y189.902 E0.02196
G1 X10.485 Y190.01 E0.02629
G1 X11.107 Y190.203 E0.02708
G1 X11.604 Y190.393 E0.02212
G1 X12.179 Y190.655 E0.02627
G1 X12.736 Y191.002 E0.02728
G1 X13.169 Y191.313 E0.02216
G1 X13.658 Y191.713 E0.02627
G1 X14.126 Y192.212 E0.02844
G1 X14.459 Y192.62 E0.0219
G1 X14.827 Y193.134 E0.02628
G1 X15.125 Y193.687 E0.02612
G1 X15.346 Y194.166 E0.02193
G1 X15.574 Y194.756 E0.0263
G1 X15.732 Y195.404 E0.02773
G1 X15.824 Y195.933 E0.02232
G1 X15.893 Y196.562 E0.02631
G1 X15.879 Y197.22 E0.02736
G0 F9000 X15.481 Y197.186
G1 F1200 X15.436 Y197.707 E0.02174
G1 X15.344 Y198.306 E0.0252
G1 X15.182 Y198.865 E0.0242
G1 X15 Y199.372 E0.0224
G1 X14.758 Y199.928 E0.02521
G1 X14.461 Y200.424 E0.02404
G1 X14.166 Y200.853 E0.02165
G1 X13.791 Y201.329 E0.02519
G1 X13.387 Y201.724 E0.02349
G1 X12.984 Y202.073 E0.02216
G1 X12.501 Y202.439 E0.02519
G1 X11.971 Y202.739 E0.02532
G1 X11.492 Y202.97 E0.02211
G1 X10.93 Y203.197 E0.0252
G1 X10.379 Y203.341 E0.02368
G1 X9.859 Y203.443 E0.02203
G1 X9.258 Y203.52 E0.02519
G1 X8.68 Y203.52 E0.02403
G1 X8.149 Y203.486 E0.02212
G1 X7.548 Y203.407 E0.0252
G1 X6.978 Y203.255 E0.02453
G1 X6.478 Y203.087 E0.02193
G1 X5.917 Y202.857 E0.02521
G1 X5.417 Y202.572 E0.02393
G1 X4.971 Y202.279 E0.02219
G1 X4.488 Y201.913 E0.02519
G1 X4.074 Y201.507 E0.02411
G1 X3.722 Y201.115 E0.0219
G1 X3.348 Y200.639 E0.02517
G1 X3.048 Y200.134 E0.02442
G1 X2.807 Y199.662 E0.02203
G1 X2.568 Y199.105 E0.0252
G1 X2.411 Y198.557 E0.0237
G1 X2.297 Y198.038 E0.02209
G1 X2.206 Y197.438 E0.02523
G1 X2.207 Y196.658 E0.03243
G1 X2.267 Y195.959 E0.02917
G1 X2.358 Y195.359 E0.02523
G1 X2.592 Y194.613 E0.03251
G1 X2.795 Y194.116 E0.02232
G1 X3.06 Y193.571 E0.0252
G1 X3.38 Y193.085 E0.02419
G1 X3.696 Y192.666 E0.02182
G1 X4.093 Y192.207 E0.02523
G1 X4.522 Y191.823 E0.02394
G1 X4.942 Y191.492 E0.02223
G1 X5.442 Y191.149 E0.02521
G1 X5.953 Y190.887 E0.02387
G1 X6.433 Y190.678 E0.02177
G1 X7.003 Y190.474 E0.02517
G1 X7.58 Y190.348 E0.02455
G1 X8.108 Y190.268 E0.0222
G1 X8.712 Y190.217 E0.0252
G1 X9.294 Y190.243 E0.02422
G1 X9.819 Y190.3 E0.02196
G1 X10.416 Y190.405 E0.0252
G1 X10.965 Y190.576 E0.02391
G1 X11.462 Y190.766 E0.02212
G1 X12.012 Y191.02 E0.02519
G1 X12.502 Y191.327 E0.02404
G1 X12.935 Y191.638 E0.02216
G1 X13.404 Y192.023 E0.02523
G1 X13.816 Y192.465 E0.02512
G1 X14.149 Y192.873 E0.0219
G1 X14.5 Y193.367 E0.02519
G1 X14.762 Y193.855 E0.02303
G1 X14.983 Y194.334 E0.02193
G1 X15.2 Y194.9 E0.0252
G1 X15.338 Y195.473 E0.0245
G1 X15.43 Y196.002 E0.02232
G1 X15.494 Y196.605 E0.02521
G1 X15.481 Y197.186 E0.02416
G0 F9000 X15.082 Y197.151
G1 F1200 X15.037 Y197.672 E0.02174
G1 X14.948 Y198.245 E0.02411
G1 X14.806 Y198.73 E0.02101
G1 X14.624 Y199.237 E0.0224
G1 X14.391 Y199.767 E0.02407
G1 X14.132 Y200.198 E0.02091
G1 X13.837 Y200.627 E0.02165
G1 X13.476 Y201.08 E0.02408
G1 X13.126 Y201.422 E0.02034
G1 X12.723 Y201.771 E0.02216
G1 X12.259 Y202.119 E0.02411
G1 X11.797 Y202.379 E0.02204
G1 X11.318 Y202.61 E0.02211
G1 X10.78 Y202.825 E0.02409
G1 X10.302 Y202.948 E0.02052
G1 X9.782 Y203.05 E0.02203
G1 X9.208 Y203.122 E0.02405
G1 X8.706 Y203.12 E0.02087
G1 X8.175 Y203.086 E0.02212
G1 X7.6 Y203.01 E0.02411
G1 X7.105 Y202.876 E0.02132
G1 X6.605 Y202.708 E0.02193
G1 X6.07 Y202.486 E0.02408
G1 X5.637 Y202.237 E0.02077
G1 X5.191 Y201.944 E0.02219
G1 X4.73 Y201.594 E0.02406
G1 X4.372 Y201.24 E0.02093
G1 X4.02 Y200.848 E0.0219
G1 X3.664 Y200.391 E0.02408
G1 X3.404 Y199.952 E0.02121
G1 X3.163 Y199.48 E0.02203
G1 X2.936 Y198.947 E0.02409
G1 X2.802 Y198.471 E0.02056
G1 X2.688 Y197.952 E0.02209
G1 X2.603 Y197.379 E0.02408
G1 X2.605 Y196.692 E0.02856
G1 X2.665 Y195.993 E0.02917
G1 X2.755 Y195.42 E0.02411
G1 X2.962 Y194.764 E0.0286
G1 X3.165 Y194.267 E0.02232
G1 X3.42 Y193.747 E0.02408
G1 X3.7 Y193.326 E0.02102
G1 X4.016 Y192.907 E0.02182
G1 X4.396 Y192.47 E0.02408
G1 X4.769 Y192.137 E0.02079
G1 X5.189 Y191.806 E0.02223
G1 X5.668 Y191.48 E0.02409
G1 X6.112 Y191.254 E0.02071
G1 X6.592 Y191.045 E0.02177
G1 X7.138 Y190.851 E0.02409
G1 X7.64 Y190.743 E0.02135
G1 X8.168 Y190.663 E0.0222
G1 X8.745 Y190.616 E0.02407
G1 X9.25 Y190.641 E0.02102
G1 X9.775 Y190.698 E0.02196
G1 X10.346 Y190.8 E0.02412
G1 X10.822 Y190.95 E0.02075
G1 X11.319 Y191.14 E0.02212
G1 X11.844 Y191.384 E0.02407
G1 X12.269 Y191.652 E0.02089
G1 X12.702 Y191.963 E0.02216
G1 X13.148 Y192.332 E0.02407
G1 X13.506 Y192.718 E0.02189
G1 X13.839 Y193.126 E0.0219
G1 X14.173 Y193.599 E0.02407
G1 X14.399 Y194.022 E0.01994
G1 X14.62 Y194.501 E0.02193
G1 X14.826 Y195.043 E0.02411
G1 X14.944 Y195.541 E0.02128
G1 X15.036 Y196.07 E0.02232
G1 X15.096 Y196.647 E0.02412
G1 X15.082 Y197.151 E0.02096
G0 F9000 X14.684 Y197.117
G1 F1200 X14.639 Y197.638 E0.02174
G1 X14.552 Y198.182 E0.0229
G1 X14.43 Y198.595 E0.0179
G1 X14.248 Y199.102 E0.0224
G1 X14.024 Y199.606 E0.02293
G1 X13.802 Y199.971 E0.01776
G1 X13.507 Y200.4 E0.02165
G1 X13.163 Y200.83 E0.02289
G1 X12.864 Y201.12 E0.01732
G1 X12.461 Y201.469 E0.02216
G1 X12.019 Y201.798 E0.02291
G1 X11.624 Y202.019 E0.01882
G1 X11.145 Y202.25 E0.02211
G1 X10.632 Y202.453 E0.02294
G1 X10.225 Y202.556 E0.01745
G1 X9.705 Y202.658 E0.02203
G1 X9.158 Y202.725 E0.02291
G1 X8.731 Y202.721 E0.01775
G1 X8.2 Y202.687 E0.02212
G1 X7.654 Y202.612 E0.02291
G1 X7.233 Y202.497 E0.01814
G1 X6.733 Y202.329 E0.02193
G1 X6.224 Y202.116 E0.02294
G1 X5.857 Y201.903 E0.01764
G1 X5.411 Y201.61 E0.02219
G1 X4.973 Y201.275 E0.02293
G1 X4.67 Y200.973 E0.01779
G1 X4.318 Y200.581 E0.0219
G1 X3.98 Y200.145 E0.02294
G1 X3.761 Y199.77 E0.01805
G1 X3.52 Y199.298 E0.02203
G1 X3.305 Y198.79 E0.02293
G1 X3.192 Y198.385 E0.01748
G1 X3.078 Y197.866 E0.02209
G1 X3 Y197.321 E0.02289
G1 X3.004 Y196.726 E0.02474
G1 X3.064 Y196.027 E0.02917
G1 X3.151 Y195.483 E0.0229
G1 X3.332 Y194.915 E0.02478
G1 X3.535 Y194.418 E0.02232
G1 X3.78 Y193.924 E0.02293
G1 X4.019 Y193.567 E0.01786
G1 X4.335 Y193.148 E0.02182
G1 X4.698 Y192.733 E0.02292
G1 X5.017 Y192.451 E0.0177
G1 X5.437 Y192.12 E0.02223
G1 X5.893 Y191.812 E0.02288
G1 X6.272 Y191.621 E0.01764
G1 X6.752 Y191.412 E0.02177
G1 X7.272 Y191.229 E0.02292
G1 X7.7 Y191.139 E0.01818
G1 X8.228 Y191.059 E0.0222
G1 X8.777 Y191.016 E0.02289
G1 X9.207 Y191.038 E0.0179
G1 X9.732 Y191.095 E0.02196
G1 X10.274 Y191.194 E0.02291
G1 X10.679 Y191.324 E0.01768
G1 X11.176 Y191.514 E0.02212
G1 X11.675 Y191.747 E0.0229
G1 X12.036 Y191.977 E0.0178
G1 X12.469 Y192.288 E0.02216
G1 X12.892 Y192.641 E0.02291
G1 X13.196 Y192.971 E0.01865
G1 X13.529 Y193.379 E0.0219
G1 X13.845 Y193.83 E0.02289
G1 X14.035 Y194.19 E0.01692
G1 X14.256 Y194.669 E0.02193
G1 X14.45 Y195.185 E0.02292
G1 X14.55 Y195.61 E0.01815
G1 X14.642 Y196.139 E0.02232
G1 X14.697 Y196.687 E0.0229
G1 X14.684 Y197.117 E0.01789
G0 F9000 X14.285 Y197.083
G1 F1200 X14.24 Y197.604 E0.02174
G1 X14.156 Y198.118 E0.02165
G1 X14.053 Y198.46 E0.01485
G1 X13.871 Y198.967 E0.0224
G1 X13.658 Y199.442 E0.02164
G1 X13.473 Y199.744 E0.01472
G1 X13.178 Y200.173 E0.02165
G1 X12.85 Y200.579 E0.0217
G1 X12.602 Y200.817 E0.01429
G1 X12.199 Y201.166 E0.02216
G1 X11.78 Y201.476 E0.02167
G1 X11.45 Y201.658 E0.01567
G1 X10.971 Y201.889 E0.02211
G1 X10.486 Y202.079 E0.02166
G1 X10.148 Y202.163 E0.01448
G1 X9.628 Y202.265 E0.02203
G1 X9.111 Y202.326 E0.02164
G1 X8.757 Y202.322 E0.01472
G1 X8.226 Y202.288 E0.02212
G1 X7.71 Y202.215 E0.02167
G1 X7.36 Y202.118 E0.0151
G1 X6.86 Y201.95 E0.02193
G1 X6.38 Y201.747 E0.02167
G1 X6.076 Y201.569 E0.01465
G1 X5.63 Y201.276 E0.02219
G1 X5.218 Y200.957 E0.02166
G1 X4.967 Y200.706 E0.01476
G1 X4.615 Y200.314 E0.0219
G1 X4.298 Y199.9 E0.02168
G1 X4.117 Y199.588 E0.015
G1 X3.876 Y199.116 E0.02203
G1 X3.675 Y198.635 E0.02167
G1 X3.583 Y198.299 E0.01448
G1 X3.469 Y197.78 E0.02209
G1 X3.397 Y197.264 E0.02166
G1 X3.402 Y196.76 E0.02095
G1 X3.462 Y196.061 E0.02917
G1 X3.547 Y195.547 E0.02166
G1 X3.702 Y195.066 E0.02101
G1 X3.905 Y194.569 E0.02232
G1 X4.139 Y194.103 E0.02168
G1 X4.338 Y193.808 E0.01479
G1 X4.654 Y193.389 E0.02182
G1 X4.999 Y192.998 E0.02168
G1 X5.264 Y192.766 E0.01464
G1 X5.684 Y192.435 E0.02223
G1 X6.117 Y192.144 E0.02169
G1 X6.432 Y191.988 E0.01461
G1 X6.912 Y191.779 E0.02177
G1 X7.404 Y191.608 E0.02166
G1 X7.76 Y191.534 E0.01512
G1 X8.288 Y191.454 E0.0222
G1 X8.807 Y191.416 E0.02164
G1 X9.164 Y191.436 E0.01487
G1 X9.689 Y191.493 E0.02196
G1 X10.201 Y191.589 E0.02166
G1 X10.536 Y191.697 E0.01463
G1 X11.033 Y191.887 E0.02212
G1 X11.504 Y192.11 E0.02167
G1 X11.802 Y192.301 E0.01472
G1 X12.235 Y192.612 E0.02216
G1 X12.634 Y192.948 E0.02169
G1 X12.886 Y193.224 E0.01554
G1 X13.219 Y193.632 E0.0219
G1 X13.517 Y194.06 E0.02168
G1 X13.672 Y194.358 E0.01397
G1 X13.893 Y194.837 E0.02193
G1 X14.075 Y195.325 E0.02165
G1 X14.156 Y195.678 E0.01506
G1 X14.248 Y196.207 E0.02232
G1 X14.297 Y196.726 E0.02167
G1 X14.285 Y197.083 E0.01485
G0 F9000 X13.887 Y197.048
G1 F1200 X13.842 Y197.569 E0.02174
G1 X13.76 Y198.052 E0.02037
G1 X13.677 Y198.325 E0.01186
G1 X13.495 Y198.832 E0.0224
G1 X13.292 Y199.277 E0.02034
G1 X13.143 Y199.518 E0.01178
G1 X12.848 Y199.947 E0.02165
G1 X12.539 Y200.326 E0.02033
G1 X12.34 Y200.515 E0.01141
G1 X11.937 Y200.864 E0.02216
G1 X11.542 Y201.153 E0.02035
G1 X11.276 Y201.298 E0.0126
G1 X10.797 Y201.529 E0.02211
G1 X10.34 Y201.705 E0.02036
G1 X10.071 Y201.771 E0.01152
G1 X9.551 Y201.873 E0.02203
G1 X9.065 Y201.928 E0.02033
G1 X8.782 Y201.923 E0.01177
G1 X8.251 Y201.889 E0.02212
G1 X7.767 Y201.818 E0.02034
G1 X7.487 Y201.739 E0.0121
G1 X6.987 Y201.571 E0.02193
G1 X6.538 Y201.378 E0.02032
G1 X6.296 Y201.234 E0.01171
G1 X5.85 Y200.941 E0.02219
G1 X5.464 Y200.64 E0.02035
G1 X5.265 Y200.438 E0.01179
G1 X4.913 Y200.046 E0.0219
G1 X4.617 Y199.657 E0.02032
G1 X4.473 Y199.406 E0.01203
G1 X4.232 Y198.934 E0.02203
G1 X4.046 Y198.482 E0.02032
G1 X3.974 Y198.214 E0.01154
G1 X3.86 Y197.695 E0.02209
G1 X3.794 Y197.21 E0.02035
G1 X3.801 Y196.794 E0.0173
G1 X3.861 Y196.095 E0.02917
G1 X3.943 Y195.613 E0.02033
G1 X4.073 Y195.218 E0.01729
G1 X4.276 Y194.721 E0.02232
G1 X4.497 Y194.284 E0.02036
G1 X4.658 Y194.049 E0.01184
G1 X4.974 Y193.63 E0.02182
G1 X5.299 Y193.264 E0.02035
G1 X5.512 Y193.08 E0.0117
G1 X5.932 Y192.749 E0.02223
G1 X6.34 Y192.478 E0.02036
G1 X6.591 Y192.354 E0.01164
G1 X7.071 Y192.145 E0.02177
G1 X7.535 Y191.987 E0.02038
G1 X7.82 Y191.93 E0.01208
G1 X8.348 Y191.85 E0.0222
G1 X8.836 Y191.816 E0.02034
G1 X9.121 Y191.834 E0.01187
G1 X9.646 Y191.891 E0.02196
G1 X10.127 Y191.983 E0.02036
G1 X10.393 Y192.071 E0.01165
G1 X10.89 Y192.261 E0.02212
G1 X11.332 Y192.472 E0.02036
G1 X11.569 Y192.626 E0.01175
G1 X12.002 Y192.937 E0.02216
G1 X12.375 Y193.254 E0.02035
G1 X12.576 Y193.477 E0.01248
G1 X12.909 Y193.885 E0.0219
G1 X13.187 Y194.288 E0.02035
G1 X13.309 Y194.525 E0.01108
G1 X13.53 Y195.004 E0.02193
G1 X13.698 Y195.464 E0.02036
G1 X13.762 Y195.747 E0.01206
G1 X13.854 Y196.276 E0.02232
G1 X13.898 Y196.763 E0.02033
G1 X13.887 Y197.048 E0.01186
G0 F9000 X13.488 Y197.014
G1 F1200 X13.443 Y197.535 E0.02174
G1 X13.3 Y198.189 E0.02783
G1 X13.118 Y198.696 E0.0224
G1 X12.813 Y199.291 E0.0278
G1 X12.518 Y199.72 E0.02165
G1 X12.078 Y200.212 E0.02744
G1 X11.675 Y200.561 E0.02216
G1 X11.306 Y200.828 E0.01894
G1 X11.102 Y200.938 E0.00964
G1 X10.623 Y201.169 E0.02211
G1 X9.994 Y201.378 E0.02756
G1 X9.474 Y201.48 E0.02203
G1 X8.808 Y201.524 E0.02775
G1 X8.277 Y201.49 E0.02212
G1 X7.615 Y201.36 E0.02805
G1 X7.115 Y201.192 E0.02193
G1 X6.515 Y200.9 E0.02774
G1 X6.069 Y200.607 E0.02219
G1 X5.562 Y200.171 E0.0278
G1 X5.21 Y199.779 E0.0219
G1 X4.829 Y199.224 E0.02799
G1 X4.588 Y198.752 E0.02203
G1 X4.365 Y198.128 E0.02755
G1 X4.251 Y197.609 E0.02209
G1 X4.192 Y197.157 E0.01895
G1 X4.2 Y196.829 E0.01364
G1 X4.26 Y196.13 E0.02917
G1 X4.338 Y195.681 E0.01895
G1 X4.443 Y195.369 E0.01369
G1 X4.646 Y194.872 E0.02232
G1 X4.977 Y194.289 E0.02787
G1 X5.293 Y193.87 E0.02182
G1 X5.76 Y193.394 E0.02772
G1 X6.18 Y193.063 E0.02223
G1 X6.751 Y192.721 E0.02767
G1 X7.231 Y192.512 E0.02177
G1 X7.88 Y192.325 E0.02808
G1 X8.408 Y192.245 E0.0222
G1 X9.078 Y192.231 E0.02786
G1 X9.603 Y192.288 E0.02196
G1 X10.25 Y192.444 E0.02767
G1 X10.747 Y192.634 E0.02212
G1 X11.336 Y192.951 E0.02781
G1 X11.769 Y193.262 E0.02216
G1 X12.114 Y193.559 E0.01893
G1 X12.266 Y193.73 E0.00951
G1 X12.599 Y194.138 E0.0219
G1 X12.946 Y194.693 E0.02721
G1 X13.167 Y195.172 E0.02193
G1 X13.368 Y195.816 E0.02805
G1 X13.46 Y196.345 E0.02232
G1 X13.488 Y197.014 E0.02784
G0 F9000 X13.09 Y196.979
G1 F1200 X13.045 Y197.5 E0.02174
G1 X12.924 Y198.054 E0.02358
G1 X12.742 Y198.561 E0.0224
G1 X12.484 Y199.065 E0.02354
G1 X12.189 Y199.494 E0.02165
G1 X11.816 Y199.91 E0.02323
G1 X11.413 Y200.259 E0.02216
G1 X10.929 Y200.578 E0.0241
G1 X10.45 Y200.809 E0.02211
G1 X9.917 Y200.986 E0.02335
G1 X9.397 Y201.088 E0.02203
G1 X8.833 Y201.125 E0.0235
G1 X8.302 Y201.091 E0.02212
G1 X7.742 Y200.98 E0.02374
G1 X7.242 Y200.812 E0.02193
G1 X6.735 Y200.566 E0.02343
G1 X6.289 Y200.273 E0.02219
G1 X5.86 Y199.904 E0.02353
G1 X5.508 Y199.512 E0.0219
G1 X5.186 Y199.042 E0.02369
G1 X4.945 Y198.57 E0.02203
G1 X4.755 Y198.042 E0.02333
G1 X4.641 Y197.523 E0.02209
G1 X4.591 Y197.107 E0.01742
G1 X4.598 Y196.863 E0.01015
G1 X4.658 Y196.164 E0.02917
G1 X4.733 Y195.752 E0.01741
G1 X4.813 Y195.52 E0.0102
G1 X5.016 Y195.023 E0.02232
G1 X5.297 Y194.53 E0.02359
G1 X5.613 Y194.111 E0.02182
G1 X6.007 Y193.708 E0.02343
G1 X6.427 Y193.377 E0.02223
G1 X6.911 Y193.088 E0.02344
G1 X7.391 Y192.879 E0.02177
G1 X7.939 Y192.721 E0.02371
G1 X8.467 Y192.641 E0.0222
G1 X9.034 Y192.629 E0.02358
G1 X9.559 Y192.686 E0.02196
G1 X10.108 Y192.818 E0.02348
G1 X10.605 Y193.008 E0.02212
